(G-CODE GENERATED BY FLATCAM v8.994 - www.flatcam.org - Version Date: 2020/11/7)

(Name: F_Cu_CENTRO.gbr_iso_combined_cnc)
(Type: G-code from Geometry)
(Units: MM)

(Created on miércoles, 01 septiembre 2021 at 01:36)

(This preprocessor is the default preprocessor used by FlatCAM.)
(It is made to work with MACH3 compatible motion controllers.)

(TOOL DIAMETER: 0.02 mm)
(Feedrate_XY: 200.0 mm/min)
(Feedrate_Z: 0.01 mm/min)
(Feedrate rapids 1500.0 mm/min)

(Z_Cut: -0.05 mm)
(Z_Move: 0.01 mm)
(Z Start: None mm)
(Z End: 0.01 mm)
(X,Y End: None mm)
(Steps per circle: 64)
(Preprocessor Geometry: default)

(X range:   -0.1500 ...    0.1500  mm)
(Y range:   -0.1500 ...    0.1500  mm)

(Spindle Speed: 200.0 RPM)
G21
G90
G94

G01 F200.00

M5
G00 Z00.10000
G00 X0.0000 Y0.0000
T1
M6    
(MSG, Change to Tool Dia = 0.0200)
M0
G00 Z00.10000

M03 S200.0
G01 F200.00
G00 X0.1100 Y-0.0025
G01 F0.01
G01 Z-0.0500
G01 F200.00
G01 X0.1097 Y0.0081
G01 X0.1084 Y0.0188
G01 X0.1060 Y0.0293
G01 X0.1026 Y0.0396
G01 X0.0983 Y0.0495
G01 X0.0929 Y0.0588
G01 X0.0867 Y0.0677
G01 X0.0797 Y0.0758
G01 X0.0718 Y0.0833
G01 X0.0633 Y0.0899
G01 X0.0542 Y0.0957
G01 X0.0446 Y0.1006
G01 X0.0345 Y0.1044
G01 X0.0241 Y0.1073
G01 X0.0135 Y0.1092
G01 X0.0027 Y0.1100
G01 X-0.0081 Y0.1097
G01 X-0.0188 Y0.1084
G01 X-0.0293 Y0.1060
G01 X-0.0396 Y0.1026
G01 X-0.0495 Y0.0983
G01 X-0.0588 Y0.0929
G01 X-0.0677 Y0.0867
G01 X-0.0758 Y0.0797
G01 X-0.0833 Y0.0718
G01 X-0.0899 Y0.0633
G01 X-0.0957 Y0.0542
G01 X-0.1006 Y0.0446
G01 X-0.1044 Y0.0345
G01 X-0.1073 Y0.0241
G01 X-0.1092 Y0.0135
G01 X-0.1100 Y0.0027
G01 X-0.1097 Y-0.0081
G01 X-0.1084 Y-0.0188
G01 X-0.1060 Y-0.0293
G01 X-0.1026 Y-0.0396
G01 X-0.0983 Y-0.0495
G01 X-0.0929 Y-0.0588
G01 X-0.0867 Y-0.0677
G01 X-0.0797 Y-0.0758
G01 X-0.0718 Y-0.0833
G01 X-0.0633 Y-0.0899
G01 X-0.0542 Y-0.0957
G01 X-0.0446 Y-0.1006
G01 X-0.0345 Y-0.1044
G01 X-0.0241 Y-0.1073
G01 X-0.0135 Y-0.1092
G01 X-0.0027 Y-0.1100
G01 X0.0081 Y-0.1097
G01 X0.0188 Y-0.1084
G01 X0.0293 Y-0.1060
G01 X0.0396 Y-0.1026
G01 X0.0495 Y-0.0983
G01 X0.0588 Y-0.0929
G01 X0.0677 Y-0.0867
G01 X0.0758 Y-0.0797
G01 X0.0833 Y-0.0718
G01 X0.0899 Y-0.0633
G01 X0.0957 Y-0.0542
G01 X0.1006 Y-0.0446
G01 X0.1044 Y-0.0345
G01 X0.1073 Y-0.0241
G01 X0.1092 Y-0.0135
G01 X0.1100 Y-0.0025
G00 Z0.0100
G00 X0.1300 Y-0.0025
G01 F0.01
G01 Z-0.0500
G01 F200.00
G01 X0.1296 Y0.0096
G01 X0.1281 Y0.0222
G01 X0.1253 Y0.0347
G01 X0.1213 Y0.0468
G01 X0.1161 Y0.0584
G01 X0.1098 Y0.0695
G01 X0.1025 Y0.0800
G01 X0.0941 Y0.0896
G01 X0.0849 Y0.0984
G01 X0.0749 Y0.1063
G01 X0.0641 Y0.1131
G01 X0.0527 Y0.1188
G01 X0.0408 Y0.1234
G01 X0.0285 Y0.1268
G01 X0.0159 Y0.1290
G01 X0.0032 Y0.1300
G01 X-0.0096 Y0.1296
G01 X-0.0222 Y0.1281
G01 X-0.0347 Y0.1253
G01 X-0.0468 Y0.1213
G01 X-0.0584 Y0.1161
G01 X-0.0695 Y0.1098
G01 X-0.0800 Y0.1025
G01 X-0.0896 Y0.0941
G01 X-0.0984 Y0.0849
G01 X-0.1063 Y0.0749
G01 X-0.1131 Y0.0641
G01 X-0.1188 Y0.0527
G01 X-0.1234 Y0.0408
G01 X-0.1268 Y0.0285
G01 X-0.1290 Y0.0159
G01 X-0.1300 Y0.0032
G01 X-0.1296 Y-0.0096
G01 X-0.1281 Y-0.0222
G01 X-0.1253 Y-0.0347
G01 X-0.1213 Y-0.0468
G01 X-0.1161 Y-0.0584
G01 X-0.1098 Y-0.0695
G01 X-0.1025 Y-0.0800
G01 X-0.0941 Y-0.0896
G01 X-0.0849 Y-0.0984
G01 X-0.0749 Y-0.1063
G01 X-0.0641 Y-0.1131
G01 X-0.0527 Y-0.1188
G01 X-0.0408 Y-0.1234
G01 X-0.0285 Y-0.1268
G01 X-0.0159 Y-0.1290
G01 X-0.0032 Y-0.1300
G01 X0.0096 Y-0.1296
G01 X0.0222 Y-0.1281
G01 X0.0347 Y-0.1253
G01 X0.0468 Y-0.1213
G01 X0.0584 Y-0.1161
G01 X0.0695 Y-0.1098
G01 X0.0800 Y-0.1025
G01 X0.0896 Y-0.0941
G01 X0.0984 Y-0.0849
G01 X0.1063 Y-0.0749
G01 X0.1131 Y-0.0641
G01 X0.1188 Y-0.0527
G01 X0.1234 Y-0.0408
G01 X0.1268 Y-0.0285
G01 X0.1290 Y-0.0159
G01 X0.1300 Y-0.0025
G00 Z0.0100
G00 X0.1500 Y-0.0025
G01 F0.01
G01 Z-0.0500
G01 F200.00
G01 X0.1496 Y0.0110
G01 X0.1478 Y0.0256
G01 X0.1446 Y0.0400
G01 X0.1399 Y0.0540
G01 X0.1340 Y0.0674
G01 X0.1267 Y0.0802
G01 X0.1182 Y0.0923
G01 X0.1086 Y0.1034
G01 X0.0980 Y0.1136
G01 X0.0864 Y0.1226
G01 X0.0739 Y0.1305
G01 X0.0608 Y0.1371
G01 X0.0471 Y0.1424
G01 X0.0329 Y0.1464
G01 X0.0184 Y0.1489
G01 X0.0037 Y0.1499
G01 X-0.0110 Y0.1496
G01 X-0.0256 Y0.1478
G01 X-0.0400 Y0.1446
G01 X-0.0540 Y0.1399
G01 X-0.0674 Y0.1340
G01 X-0.0802 Y0.1267
G01 X-0.0923 Y0.1182
G01 X-0.1034 Y0.1086
G01 X-0.1136 Y0.0980
G01 X-0.1226 Y0.0864
G01 X-0.1305 Y0.0739
G01 X-0.1371 Y0.0608
G01 X-0.1424 Y0.0471
G01 X-0.1464 Y0.0329
G01 X-0.1489 Y0.0184
G01 X-0.1499 Y0.0037
G01 X-0.1496 Y-0.0110
G01 X-0.1478 Y-0.0256
G01 X-0.1446 Y-0.0400
G01 X-0.1399 Y-0.0540
G01 X-0.1340 Y-0.0674
G01 X-0.1267 Y-0.0802
G01 X-0.1182 Y-0.0923
G01 X-0.1086 Y-0.1034
G01 X-0.0980 Y-0.1136
G01 X-0.0864 Y-0.1226
G01 X-0.0739 Y-0.1305
G01 X-0.0608 Y-0.1371
G01 X-0.0471 Y-0.1424
G01 X-0.0329 Y-0.1464
G01 X-0.0184 Y-0.1489
G01 X-0.0037 Y-0.1499
G01 X0.0110 Y-0.1496
G01 X0.0256 Y-0.1478
G01 X0.0400 Y-0.1446
G01 X0.0540 Y-0.1399
G01 X0.0674 Y-0.1340
G01 X0.0802 Y-0.1267
G01 X0.0923 Y-0.1182
G01 X0.1034 Y-0.1086
G01 X0.1136 Y-0.0980
G01 X0.1226 Y-0.0864
G01 X0.1305 Y-0.0739
G01 X0.1371 Y-0.0608
G01 X0.1424 Y-0.0471
G01 X0.1464 Y-0.0329
G01 X0.1489 Y-0.0184
G01 X0.1500 Y-0.0025
G00 Z0.0100
M05
G00 Z0.0100
G00 Z0.01


