(G-CODE GENERATED BY FLATCAM v8.994 - www.flatcam.org - Version Date: 2020/11/7)

(Name: F_Cu.gbr_iso_combined_cnc)
(Type: G-code from Geometry)
(Units: MM)

(Created on domingo, 05 septiembre 2021 at 14:13)

(This preprocessor is the default preprocessor used by FlatCAM.)
(It is made to work with MACH3 compatible motion controllers.)

(TOOL DIAMETER: 0.01 mm)
(Feedrate_XY: 200.0 mm/min)
(Feedrate_Z: 60.0 mm/min)
(Feedrate rapids 1500.0 mm/min)

(Z_Cut: -0.01 mm)
(Z_Move: 0.001 mm)
(Z Start: None mm)
(Z End: 15.0 mm)
(X,Y End: None mm)
(Steps per circle: 64)
(Preprocessor Geometry: default)

(X range:  -48.0322 ...   48.7014  mm)
(Y range:  -35.5354 ...   36.7576  mm)

(Spindle Speed: 500.0 RPM)
G21
G90
G94

G01 F200.00

M5
G00 Z00.1000
G00 X0.0000 Y0.0000
T1
M6    
(MSG, Change to Tool Dia = 0.0100)
M0
G00 Z00.1000

M03 S500.0
G01 F200.00
G00 X5.7326 Y0.1329
G01 F60.00
G01 Z-0.0100
G01 F200.00
G01 X5.7629 Y0.0690
G01 X5.7994 Y0.0080
G01 X5.8440 Y-0.0526
G01 X5.8948 Y-0.1083
G01 X5.9474 Y-0.1560
G01 X6.0061 Y-0.1994
G01 X6.0708 Y-0.2380
G01 X6.1349 Y-0.2683
G01 X6.2037 Y-0.2929
G01 X6.2768 Y-0.3111
G01 X6.3469 Y-0.3214
G01 X6.4200 Y-0.3250
G01 X6.4931 Y-0.3214
G01 X6.5632 Y-0.3111
G01 X6.6363 Y-0.2929
G01 X6.7051 Y-0.2683
G01 X6.7692 Y-0.2380
G01 X6.8340 Y-0.1994
G01 X6.8926 Y-0.1560
G01 X6.9452 Y-0.1083
G01 X6.9960 Y-0.0526
G01 X7.0406 Y0.0080
G01 X7.0770 Y0.0688
G01 X7.1036 Y0.1249
G01 X9.3478 Y0.1249
G01 X11.7021 Y-2.2295
G01 X11.7227 Y-2.2481
G01 X11.7442 Y-2.2641
G01 X11.7709 Y-2.2803
G01 X11.7991 Y-2.2935
G01 X11.8243 Y-2.3024
G01 X11.8514 Y-2.3092
G01 X11.8810 Y-2.3137
G01 X11.9100 Y-2.3151
G01 X16.2400 Y-2.3151
G01 X16.2690 Y-2.3137
G01 X16.2975 Y-2.3095
G01 X16.3235 Y-2.3030
G01 X16.3550 Y-2.2918
G01 X16.3790 Y-2.2803
G01 X16.4038 Y-2.2655
G01 X16.4273 Y-2.2481
G01 X16.4479 Y-2.2295
G01 X20.0942 Y1.4169
G01 X24.7080 Y1.4169
G01 X24.7359 Y1.4182
G01 X24.7677 Y1.4230
G01 X24.7937 Y1.4296
G01 X24.8210 Y1.4394
G01 X24.8470 Y1.4517
G01 X24.8701 Y1.4654
G01 X24.8961 Y1.4846
G01 X24.9167 Y1.5033
G01 X25.3682 Y1.9549
G01 X26.6761 Y1.9549
G01 X26.6936 Y1.9064
G01 X26.7301 Y1.8292
G01 X26.7751 Y1.7539
G01 X26.8282 Y1.6821
G01 X26.8879 Y1.6164
G01 X26.9540 Y1.5568
G01 X27.0229 Y1.5057
G01 X27.0962 Y1.4618
G01 X27.1775 Y1.4231
G01 X27.2612 Y1.3932
G01 X27.3476 Y1.3718
G01 X27.4326 Y1.3593
G01 X27.5189 Y1.3550
G01 X28.8200 Y1.3550
G01 X28.9074 Y1.3593
G01 X28.9945 Y1.3722
G01 X29.0799 Y1.3936
G01 X29.1625 Y1.4231
G01 X29.2418 Y1.4606
G01 X29.3171 Y1.5057
G01 X29.3879 Y1.5582
G01 X29.4529 Y1.6171
G01 X29.5118 Y1.6821
G01 X29.5643 Y1.7529
G01 X29.6094 Y1.8282
G01 X29.6469 Y1.9075
G01 X29.6764 Y1.9901
G01 X29.6978 Y2.0755
G01 X29.7107 Y2.1626
G01 X29.7150 Y2.2500
G01 X29.7107 Y2.3374
G01 X29.6973 Y2.4268
G01 X29.6764 Y2.5099
G01 X29.6469 Y2.5925
G01 X29.6082 Y2.6738
G01 X29.5643 Y2.7471
G01 X29.5132 Y2.8160
G01 X29.4529 Y2.8829
G01 X29.3860 Y2.9432
G01 X29.3171 Y2.9943
G01 X29.2438 Y3.0382
G01 X29.1604 Y3.0777
G01 X29.0799 Y3.1064
G01 X28.9945 Y3.1278
G01 X28.9074 Y3.1407
G01 X28.8222 Y3.1449
G01 X27.5189 Y3.1450
G01 X27.4326 Y3.1407
G01 X27.3476 Y3.1282
G01 X27.2601 Y3.1064
G01 X27.1775 Y3.0769
G01 X27.1001 Y3.0403
G01 X27.0219 Y2.9936
G01 X26.9521 Y2.9418
G01 X26.8887 Y2.8844
G01 X26.8276 Y2.8171
G01 X26.7757 Y2.7471
G01 X26.7312 Y2.6728
G01 X26.6936 Y2.5936
G01 X26.6761 Y2.5451
G01 X25.2449 Y2.5451
G01 X25.2170 Y2.5437
G01 X25.1885 Y2.5395
G01 X25.1603 Y2.5324
G01 X25.1341 Y2.5231
G01 X25.1070 Y2.5103
G01 X25.0822 Y2.4955
G01 X25.0587 Y2.4781
G01 X25.0381 Y2.4595
G01 X24.5858 Y2.0071
G01 X19.9720 Y2.0071
G01 X19.9430 Y2.0057
G01 X19.9166 Y2.0018
G01 X19.8863 Y1.9944
G01 X19.8570 Y1.9838
G01 X19.8330 Y1.9723
G01 X19.8099 Y1.9586
G01 X19.7847 Y1.9401
G01 X19.7633 Y1.9207
G01 X16.1178 Y-1.7249
G01 X12.0322 Y-1.7249
G01 X9.6779 Y0.6295
G01 X9.6573 Y0.6481
G01 X9.6358 Y0.6641
G01 X9.6090 Y0.6803
G01 X9.5830 Y0.6926
G01 X9.5578 Y0.7017
G01 X9.5265 Y0.7097
G01 X9.4990 Y0.7137
G01 X9.4700 Y0.7151
G01 X7.1036 Y0.7151
G01 X7.0771 Y0.7710
G01 X7.0394 Y0.8340
G01 X6.9960 Y0.8926
G01 X6.9483 Y0.9452
G01 X6.8909 Y0.9973
G01 X6.8339 Y1.0394
G01 X6.7712 Y1.0770
G01 X6.7051 Y1.1083
G01 X6.6384 Y1.1322
G01 X6.5632 Y1.1511
G01 X6.4931 Y1.1614
G01 X6.4200 Y1.1650
G01 X6.3469 Y1.1614
G01 X6.2768 Y1.1511
G01 X6.2037 Y1.1329
G01 X6.1349 Y1.1083
G01 X6.0690 Y1.0771
G01 X6.0043 Y1.0382
G01 X5.9457 Y0.9945
G01 X5.8932 Y0.9468
G01 X5.8455 Y0.8943
G01 X5.8006 Y0.8339
G01 X5.7630 Y0.7712
G01 X5.7317 Y0.7051
G01 X5.7065 Y0.6341
G01 X5.6893 Y0.5653
G01 X5.6789 Y0.4952
G01 X5.6751 Y0.4222
G01 X5.6786 Y0.3469
G01 X5.6893 Y0.2747
G01 X5.7071 Y0.2037
G01 X5.7326 Y0.1329
G00 Z0.0010
G00 X5.7416 Y0.1372
G01 F60.00
G01 Z-0.0100
G01 F200.00
G01 X5.7717 Y0.0736
G01 X5.8080 Y0.0131
G01 X5.8518 Y-0.0462
G01 X5.9015 Y-0.1009
G01 X5.9538 Y-0.1482
G01 X6.0117 Y-0.1911
G01 X6.0751 Y-0.2290
G01 X6.1387 Y-0.2590
G01 X6.2066 Y-0.2833
G01 X6.2783 Y-0.3012
G01 X6.3479 Y-0.3115
G01 X6.4200 Y-0.3150
G01 X6.4921 Y-0.3115
G01 X6.5617 Y-0.3012
G01 X6.6334 Y-0.2833
G01 X6.7013 Y-0.2590
G01 X6.7649 Y-0.2290
G01 X6.8284 Y-0.1911
G01 X6.8862 Y-0.1482
G01 X6.9385 Y-0.1009
G01 X6.9882 Y-0.0462
G01 X7.0320 Y0.0131
G01 X7.0682 Y0.0735
G01 X7.0973 Y0.1349
G01 X9.3519 Y0.1349
G01 X11.7090 Y-2.2222
G01 X11.7290 Y-2.2403
G01 X11.7502 Y-2.2561
G01 X11.7756 Y-2.2715
G01 X11.8025 Y-2.2840
G01 X11.8272 Y-2.2928
G01 X11.8536 Y-2.2995
G01 X11.8820 Y-2.3037
G01 X11.9100 Y-2.3051
G01 X16.2400 Y-2.3051
G01 X16.2680 Y-2.3037
G01 X16.2956 Y-2.2997
G01 X16.3228 Y-2.2928
G01 X16.3491 Y-2.2834
G01 X16.3729 Y-2.2722
G01 X16.3998 Y-2.2561
G01 X16.4210 Y-2.2403
G01 X16.4416 Y-2.2216
G01 X20.0901 Y1.4269
G01 X24.7080 Y1.4269
G01 X24.7351 Y1.4282
G01 X24.7653 Y1.4327
G01 X24.7908 Y1.4392
G01 X24.8171 Y1.4486
G01 X24.8424 Y1.4605
G01 X24.8650 Y1.4740
G01 X24.8896 Y1.4922
G01 X24.9096 Y1.5104
G01 X25.3641 Y1.9649
G01 X26.6832 Y1.9649
G01 X26.7024 Y1.9113
G01 X26.7391 Y1.8337
G01 X26.7836 Y1.7592
G01 X26.8359 Y1.6885
G01 X26.8948 Y1.6236
G01 X26.9599 Y1.5648
G01 X27.0284 Y1.5141
G01 X27.1013 Y1.4703
G01 X27.1813 Y1.4324
G01 X27.2639 Y1.4029
G01 X27.3490 Y1.3817
G01 X27.4335 Y1.3692
G01 X27.5191 Y1.3650
G01 X28.8200 Y1.3650
G01 X28.9065 Y1.3692
G01 X28.9926 Y1.3820
G01 X29.0770 Y1.4031
G01 X29.1587 Y1.4324
G01 X29.2371 Y1.4695
G01 X29.3116 Y1.5141
G01 X29.3815 Y1.5659
G01 X29.4458 Y1.6242
G01 X29.5041 Y1.6885
G01 X29.5559 Y1.7584
G01 X29.6005 Y1.8329
G01 X29.6376 Y1.9113
G01 X29.6669 Y1.9930
G01 X29.6880 Y2.0774
G01 X29.7008 Y2.1635
G01 X29.7050 Y2.2500
G01 X29.7008 Y2.3365
G01 X29.6876 Y2.4243
G01 X29.6669 Y2.5070
G01 X29.6376 Y2.5887
G01 X29.5997 Y2.6687
G01 X29.5559 Y2.7416
G01 X29.5052 Y2.8101
G01 X29.4458 Y2.8758
G01 X29.3801 Y2.9352
G01 X29.3116 Y2.9859
G01 X29.2387 Y3.0297
G01 X29.1571 Y3.0683
G01 X29.0770 Y3.0969
G01 X28.9926 Y3.1180
G01 X28.9065 Y3.1308
G01 X28.8217 Y3.1350
G01 X27.5191 Y3.1350
G01 X27.4335 Y3.1308
G01 X27.3490 Y3.1183
G01 X27.2630 Y3.0969
G01 X27.1813 Y3.0676
G01 X27.1043 Y3.0313
G01 X27.0277 Y2.9854
G01 X26.9585 Y2.9341
G01 X26.8955 Y2.8770
G01 X26.8349 Y2.8102
G01 X26.7841 Y2.7416
G01 X26.7399 Y2.6679
G01 X26.7024 Y2.5887
G01 X26.6832 Y2.5351
G01 X25.2451 Y2.5351
G01 X25.2180 Y2.5337
G01 X25.1904 Y2.5297
G01 X25.1632 Y2.5228
G01 X25.1377 Y2.5137
G01 X25.1116 Y2.5015
G01 X25.0877 Y2.4871
G01 X25.0650 Y2.4703
G01 X25.0450 Y2.4522
G01 X24.5899 Y1.9971
G01 X19.9720 Y1.9971
G01 X19.9440 Y1.9957
G01 X19.9181 Y1.9919
G01 X19.8892 Y1.9848
G01 X19.8613 Y1.9747
G01 X19.8376 Y1.9635
G01 X19.8150 Y1.9500
G01 X19.7910 Y1.9323
G01 X19.7704 Y1.9136
G01 X16.1219 Y-1.7349
G01 X12.0281 Y-1.7349
G01 X9.6710 Y0.6222
G01 X9.6510 Y0.6403
G01 X9.6298 Y0.6561
G01 X9.6044 Y0.6715
G01 X9.5791 Y0.6834
G01 X9.5544 Y0.6923
G01 X9.5248 Y0.6998
G01 X9.4980 Y0.7037
G01 X9.4700 Y0.7051
G01 X7.0973 Y0.7051
G01 X7.0683 Y0.7664
G01 X7.0311 Y0.8284
G01 X6.9882 Y0.8862
G01 X6.9409 Y0.9385
G01 X6.8849 Y0.9892
G01 X6.8283 Y1.0311
G01 X6.7665 Y1.0682
G01 X6.7013 Y1.0990
G01 X6.6350 Y1.1228
G01 X6.5617 Y1.1412
G01 X6.4921 Y1.1515
G01 X6.4200 Y1.1550
G01 X6.3479 Y1.1515
G01 X6.2783 Y1.1412
G01 X6.2066 Y1.1233
G01 X6.1387 Y1.0990
G01 X6.0736 Y1.0683
G01 X6.0103 Y1.0301
G01 X5.9524 Y0.9870
G01 X5.9003 Y0.9397
G01 X5.8530 Y0.8876
G01 X5.8089 Y0.8283
G01 X5.7718 Y0.7665
G01 X5.7410 Y0.7013
G01 X5.7162 Y0.6317
G01 X5.6991 Y0.5633
G01 X5.6887 Y0.4937
G01 X5.6850 Y0.4217
G01 X5.6885 Y0.3479
G01 X5.6991 Y0.2767
G01 X5.7167 Y0.2066
G01 X5.7416 Y0.1372
G00 Z0.0010
G00 X5.7507 Y0.1414
G01 F60.00
G01 Z-0.0100
G01 F200.00
G01 X5.7806 Y0.0783
G01 X5.8165 Y0.0182
G01 X5.8595 Y-0.0399
G01 X5.9082 Y-0.0935
G01 X5.9601 Y-0.1405
G01 X6.0172 Y-0.1828
G01 X6.0793 Y-0.2199
G01 X6.1425 Y-0.2498
G01 X6.2095 Y-0.2738
G01 X6.2798 Y-0.2913
G01 X6.3489 Y-0.3015
G01 X6.4200 Y-0.3050
G01 X6.4911 Y-0.3015
G01 X6.5602 Y-0.2913
G01 X6.6305 Y-0.2738
G01 X6.6975 Y-0.2498
G01 X6.7607 Y-0.2199
G01 X6.8228 Y-0.1828
G01 X6.8799 Y-0.1405
G01 X6.9318 Y-0.0935
G01 X6.9805 Y-0.0399
G01 X7.0228 Y0.0172
G01 X7.0588 Y0.0772
G01 X7.0907 Y0.1449
G01 X9.3560 Y0.1449
G01 X11.7159 Y-2.2150
G01 X11.7354 Y-2.2326
G01 X11.7561 Y-2.2481
G01 X11.7803 Y-2.2627
G01 X11.8059 Y-2.2746
G01 X11.8301 Y-2.2833
G01 X11.8558 Y-2.2897
G01 X11.8830 Y-2.2938
G01 X11.9100 Y-2.2951
G01 X16.2400 Y-2.2951
G01 X16.2670 Y-2.2938
G01 X16.2936 Y-2.2898
G01 X16.3199 Y-2.2833
G01 X16.3453 Y-2.2742
G01 X16.3686 Y-2.2632
G01 X16.3939 Y-2.2481
G01 X16.4146 Y-2.2326
G01 X16.4345 Y-2.2145
G01 X20.0860 Y1.4369
G01 X24.7080 Y1.4369
G01 X24.7344 Y1.4381
G01 X24.7629 Y1.4424
G01 X24.7879 Y1.4487
G01 X24.8133 Y1.4578
G01 X24.8377 Y1.4693
G01 X24.8598 Y1.4826
G01 X24.8830 Y1.4997
G01 X24.9025 Y1.5175
G01 X25.3600 Y1.9749
G01 X26.6902 Y1.9749
G01 X26.7116 Y1.9151
G01 X26.7478 Y1.8386
G01 X26.7921 Y1.7645
G01 X26.8437 Y1.6949
G01 X26.9017 Y1.6309
G01 X26.9659 Y1.5729
G01 X27.0340 Y1.5224
G01 X27.1065 Y1.4789
G01 X27.1851 Y1.4416
G01 X27.2666 Y1.4125
G01 X27.3505 Y1.3916
G01 X27.4344 Y1.3792
G01 X27.5194 Y1.3750
G01 X28.8200 Y1.3750
G01 X28.9056 Y1.3792
G01 X28.9907 Y1.3918
G01 X29.0740 Y1.4127
G01 X29.1549 Y1.4416
G01 X29.2324 Y1.4783
G01 X29.3060 Y1.5224
G01 X29.3751 Y1.5737
G01 X29.4387 Y1.6313
G01 X29.4963 Y1.6949
G01 X29.5476 Y1.7640
G01 X29.5917 Y1.8376
G01 X29.6284 Y1.9151
G01 X29.6573 Y1.9960
G01 X29.6782 Y2.0793
G01 X29.6908 Y2.1644
G01 X29.6950 Y2.2500
G01 X29.6908 Y2.3356
G01 X29.6779 Y2.4219
G01 X29.6573 Y2.5040
G01 X29.6284 Y2.5849
G01 X29.5911 Y2.6635
G01 X29.5476 Y2.7360
G01 X29.4971 Y2.8041
G01 X29.4387 Y2.8687
G01 X29.3741 Y2.9271
G01 X29.3060 Y2.9776
G01 X29.2335 Y3.0211
G01 X29.1537 Y3.0588
G01 X29.0740 Y3.0873
G01 X28.9907 Y3.1082
G01 X28.9056 Y3.1208
G01 X28.8212 Y3.1250
G01 X27.5194 Y3.1250
G01 X27.4344 Y3.1208
G01 X27.3505 Y3.1084
G01 X27.2660 Y3.0873
G01 X27.1851 Y3.0584
G01 X27.1086 Y3.0222
G01 X27.0329 Y2.9768
G01 X26.9649 Y2.9263
G01 X26.9022 Y2.8696
G01 X26.8429 Y2.8042
G01 X26.7924 Y2.7360
G01 X26.7483 Y2.6624
G01 X26.7116 Y2.5849
G01 X26.6902 Y2.5251
G01 X25.2454 Y2.5251
G01 X25.2190 Y2.5238
G01 X25.1924 Y2.5198
G01 X25.1661 Y2.5133
G01 X25.1413 Y2.5044
G01 X25.1163 Y2.4927
G01 X25.0932 Y2.4788
G01 X25.0714 Y2.4626
G01 X25.0519 Y2.4450
G01 X24.5940 Y1.9871
G01 X19.9720 Y1.9871
G01 X19.9450 Y1.9858
G01 X19.9195 Y1.9820
G01 X19.8921 Y1.9753
G01 X19.8656 Y1.9657
G01 X19.8423 Y1.9547
G01 X19.8202 Y1.9414
G01 X19.7974 Y1.9246
G01 X19.7775 Y1.9065
G01 X16.1260 Y-1.7449
G01 X12.0240 Y-1.7449
G01 X9.6641 Y0.6150
G01 X9.6446 Y0.6326
G01 X9.6239 Y0.6481
G01 X9.5997 Y0.6627
G01 X9.5753 Y0.6742
G01 X9.5510 Y0.6829
G01 X9.5231 Y0.6900
G01 X9.4970 Y0.6938
G01 X9.4700 Y0.6951
G01 X7.0907 Y0.6951
G01 X7.0588 Y0.7628
G01 X7.0228 Y0.8228
G01 X6.9805 Y0.8799
G01 X6.9327 Y0.9327
G01 X6.8809 Y0.9796
G01 X6.8218 Y1.0235
G01 X6.7618 Y1.0594
G01 X6.6975 Y1.0898
G01 X6.6305 Y1.1138
G01 X6.5626 Y1.1308
G01 X6.4898 Y1.1416
G01 X6.4200 Y1.1450
G01 X6.3477 Y1.1414
G01 X6.2774 Y1.1308
G01 X6.2095 Y1.1138
G01 X6.1437 Y1.0903
G01 X6.0783 Y1.0594
G01 X6.0172 Y1.0228
G01 X5.9601 Y0.9805
G01 X5.9065 Y0.9318
G01 X5.8588 Y0.8790
G01 X5.8172 Y0.8228
G01 X5.7812 Y0.7628
G01 X5.7502 Y0.6975
G01 X5.7259 Y0.6293
G01 X5.7089 Y0.5614
G01 X5.6986 Y0.4923
G01 X5.6950 Y0.4212
G01 X5.6985 Y0.3489
G01 X5.7089 Y0.2786
G01 X5.7262 Y0.2095
G01 X5.7507 Y0.1414
G00 Z0.0010
G00 X5.7597 Y0.1457
G01 F60.00
G01 Z-0.0100
G01 F200.00
G01 X5.7894 Y0.0830
G01 X5.8251 Y0.0234
G01 X5.8673 Y-0.0336
G01 X5.9150 Y-0.0861
G01 X5.9664 Y-0.1327
G01 X6.0228 Y-0.1745
G01 X6.0836 Y-0.2109
G01 X6.1464 Y-0.2406
G01 X6.2124 Y-0.2642
G01 X6.2812 Y-0.2814
G01 X6.3499 Y-0.2916
G01 X6.4200 Y-0.2950
G01 X6.4901 Y-0.2916
G01 X6.5588 Y-0.2814
G01 X6.6276 Y-0.2642
G01 X6.6936 Y-0.2406
G01 X6.7564 Y-0.2109
G01 X6.8173 Y-0.1745
G01 X6.8736 Y-0.1327
G01 X6.9250 Y-0.0861
G01 X6.9727 Y-0.0336
G01 X7.0145 Y0.0228
G01 X7.0502 Y0.0823
G01 X7.0803 Y0.1457
G01 X7.0836 Y0.1549
G01 X9.3602 Y0.1549
G01 X11.7228 Y-2.2077
G01 X11.7418 Y-2.2249
G01 X11.7621 Y-2.2400
G01 X11.7850 Y-2.2538
G01 X11.8092 Y-2.2652
G01 X11.8330 Y-2.2737
G01 X11.8579 Y-2.2800
G01 X11.8840 Y-2.2838
G01 X11.9100 Y-2.2851
G01 X16.2400 Y-2.2851
G01 X16.2660 Y-2.2838
G01 X16.2917 Y-2.2800
G01 X16.3170 Y-2.2737
G01 X16.3415 Y-2.2649
G01 X16.3643 Y-2.2542
G01 X16.3879 Y-2.2400
G01 X16.4082 Y-2.2249
G01 X16.4275 Y-2.2075
G01 X20.0818 Y1.4469
G01 X24.7080 Y1.4469
G01 X24.7336 Y1.4481
G01 X24.7604 Y1.4521
G01 X24.7850 Y1.4583
G01 X24.8095 Y1.4671
G01 X24.8330 Y1.4782
G01 X24.8547 Y1.4912
G01 X24.8765 Y1.5073
G01 X24.8955 Y1.5245
G01 X25.3558 Y1.9849
G01 X26.6972 Y1.9849
G01 X26.7208 Y1.9190
G01 X26.7568 Y1.8429
G01 X26.8004 Y1.7701
G01 X26.8514 Y1.7012
G01 X26.9084 Y1.6384
G01 X26.9718 Y1.5809
G01 X27.0395 Y1.5307
G01 X27.1116 Y1.4875
G01 X27.1890 Y1.4508
G01 X27.2692 Y1.4221
G01 X27.3520 Y1.4015
G01 X27.4353 Y1.3892
G01 X27.5196 Y1.3850
G01 X28.8200 Y1.3850
G01 X28.9047 Y1.3892
G01 X28.9887 Y1.4016
G01 X29.0711 Y1.4223
G01 X29.1510 Y1.4508
G01 X29.2277 Y1.4871
G01 X29.3005 Y1.5307
G01 X29.3688 Y1.5814
G01 X29.4316 Y1.6384
G01 X29.4886 Y1.7012
G01 X29.5393 Y1.7695
G01 X29.5829 Y1.8423
G01 X29.6192 Y1.9190
G01 X29.6477 Y1.9989
G01 X29.6684 Y2.0813
G01 X29.6808 Y2.1653
G01 X29.6850 Y2.2500
G01 X29.6808 Y2.3347
G01 X29.6682 Y2.4195
G01 X29.6477 Y2.5011
G01 X29.6192 Y2.5810
G01 X29.5825 Y2.6584
G01 X29.5393 Y2.7305
G01 X29.4891 Y2.7982
G01 X29.4316 Y2.8616
G01 X29.3682 Y2.9191
G01 X29.3005 Y2.9693
G01 X29.2284 Y3.0125
G01 X29.1503 Y3.0494
G01 X29.0711 Y3.0777
G01 X28.9887 Y3.0984
G01 X28.9047 Y3.1108
G01 X28.8207 Y3.1150
G01 X27.5193 Y3.1150
G01 X27.4353 Y3.1108
G01 X27.3520 Y3.0985
G01 X27.2689 Y3.0777
G01 X27.1890 Y3.0492
G01 X27.1129 Y3.0132
G01 X27.0388 Y2.9688
G01 X26.9712 Y2.9186
G01 X26.9089 Y2.8622
G01 X26.8509 Y2.7982
G01 X26.8007 Y2.7305
G01 X26.7571 Y2.6577
G01 X26.7208 Y2.5810
G01 X26.6972 Y2.5151
G01 X25.2456 Y2.5151
G01 X25.2200 Y2.5138
G01 X25.1943 Y2.5100
G01 X25.1690 Y2.5037
G01 X25.1449 Y2.4951
G01 X25.1210 Y2.4838
G01 X25.0988 Y2.4705
G01 X25.0778 Y2.4549
G01 X25.0588 Y2.4377
G01 X24.5982 Y1.9771
G01 X19.9720 Y1.9771
G01 X19.9460 Y1.9758
G01 X19.9210 Y1.9722
G01 X19.8950 Y1.9657
G01 X19.8699 Y1.9566
G01 X19.8470 Y1.9458
G01 X19.8253 Y1.9328
G01 X19.8038 Y1.9169
G01 X19.7845 Y1.8995
G01 X16.1302 Y-1.7549
G01 X12.0198 Y-1.7549
G01 X9.6572 Y0.6077
G01 X9.6382 Y0.6249
G01 X9.6179 Y0.6400
G01 X9.5950 Y0.6538
G01 X9.5715 Y0.6649
G01 X9.5477 Y0.6735
G01 X9.5214 Y0.6801
G01 X9.4960 Y0.6838
G01 X9.4700 Y0.6851
G01 X7.0836 Y0.6851
G01 X7.0803 Y0.6943
G01 X7.0503 Y0.7576
G01 X7.0145 Y0.8173
G01 X6.9727 Y0.8736
G01 X6.9256 Y0.9256
G01 X6.8741 Y0.9722
G01 X6.8166 Y1.0149
G01 X6.7570 Y1.0506
G01 X6.6936 Y1.0806
G01 X6.6276 Y1.1042
G01 X6.5602 Y1.1211
G01 X6.4893 Y1.1316
G01 X6.4200 Y1.1350
G01 X6.3492 Y1.1315
G01 X6.2798 Y1.1211
G01 X6.2124 Y1.1042
G01 X6.1471 Y1.0808
G01 X6.0830 Y1.0506
G01 X6.0227 Y1.0145
G01 X5.9664 Y0.9727
G01 X5.9139 Y0.9250
G01 X5.8668 Y0.8730
G01 X5.8255 Y0.8172
G01 X5.7898 Y0.7577
G01 X5.7594 Y0.6936
G01 X5.7356 Y0.6268
G01 X5.7187 Y0.5595
G01 X5.7085 Y0.4908
G01 X5.7050 Y0.4207
G01 X5.7084 Y0.3499
G01 X5.7187 Y0.2805
G01 X5.7358 Y0.2124
G01 X5.7597 Y0.1457
G00 Z0.0010
G00 X5.7688 Y0.1500
G01 F60.00
G01 Z-0.0100
G01 F200.00
G01 X5.7982 Y0.0877
G01 X5.8337 Y0.0285
G01 X5.8750 Y-0.0272
G01 X5.9217 Y-0.0787
G01 X5.9728 Y-0.1250
G01 X6.0283 Y-0.1662
G01 X6.0879 Y-0.2019
G01 X6.1502 Y-0.2313
G01 X6.2153 Y-0.2546
G01 X6.2827 Y-0.2715
G01 X6.3509 Y-0.2816
G01 X6.4200 Y-0.2850
G01 X6.4891 Y-0.2816
G01 X6.5573 Y-0.2715
G01 X6.6247 Y-0.2546
G01 X6.6898 Y-0.2313
G01 X6.7521 Y-0.2019
G01 X6.8117 Y-0.1662
G01 X6.8672 Y-0.1250
G01 X6.9183 Y-0.0787
G01 X6.9650 Y-0.0272
G01 X7.0062 Y0.0283
G01 X7.0417 Y0.0876
G01 X7.0713 Y0.1501
G01 X7.0766 Y0.1649
G01 X9.3643 Y0.1649
G01 X11.7296 Y-2.2004
G01 X11.7481 Y-2.2172
G01 X11.7681 Y-2.2320
G01 X11.7897 Y-2.2450
G01 X11.8126 Y-2.2558
G01 X11.8359 Y-2.2641
G01 X11.8601 Y-2.2702
G01 X11.8850 Y-2.2739
G01 X11.9100 Y-2.2751
G01 X16.2400 Y-2.2751
G01 X16.2650 Y-2.2739
G01 X16.2898 Y-2.2702
G01 X16.3141 Y-2.2641
G01 X16.3376 Y-2.2557
G01 X16.3600 Y-2.2451
G01 X16.3819 Y-2.2320
G01 X16.4019 Y-2.2172
G01 X16.4204 Y-2.2004
G01 X20.0777 Y1.4569
G01 X24.7080 Y1.4569
G01 X24.7329 Y1.4581
G01 X24.7580 Y1.4618
G01 X24.7821 Y1.4679
G01 X24.8056 Y1.4763
G01 X24.8283 Y1.4870
G01 X24.8495 Y1.4997
G01 X24.8699 Y1.5149
G01 X24.8884 Y1.5316
G01 X25.3517 Y1.9949
G01 X26.7043 Y1.9949
G01 X26.7301 Y1.9228
G01 X26.7658 Y1.8472
G01 X26.8090 Y1.7752
G01 X26.8591 Y1.7076
G01 X26.9154 Y1.6454
G01 X26.9778 Y1.5889
G01 X27.0450 Y1.5391
G01 X27.1167 Y1.4961
G01 X27.1928 Y1.4601
G01 X27.2719 Y1.4318
G01 X27.3534 Y1.4114
G01 X27.4362 Y1.3991
G01 X27.5199 Y1.3950
G01 X28.8200 Y1.3950
G01 X28.9038 Y1.3991
G01 X28.9868 Y1.4114
G01 X29.0682 Y1.4318
G01 X29.1472 Y1.4601
G01 X29.2230 Y1.4960
G01 X29.2950 Y1.5391
G01 X29.3624 Y1.5891
G01 X29.4246 Y1.6454
G01 X29.4809 Y1.7076
G01 X29.5309 Y1.7750
G01 X29.5740 Y1.8470
G01 X29.6099 Y1.9228
G01 X29.6382 Y2.0018
G01 X29.6586 Y2.0832
G01 X29.6709 Y2.1662
G01 X29.6750 Y2.2500
G01 X29.6709 Y2.3338
G01 X29.6585 Y2.4170
G01 X29.6382 Y2.4982
G01 X29.6099 Y2.5772
G01 X29.5739 Y2.6533
G01 X29.5309 Y2.7250
G01 X29.4811 Y2.7922
G01 X29.4246 Y2.8546
G01 X29.3622 Y2.9111
G01 X29.2950 Y2.9609
G01 X29.2233 Y3.0039
G01 X29.1470 Y3.0400
G01 X29.0682 Y3.0682
G01 X28.9868 Y3.0886
G01 X28.9038 Y3.1009
G01 X28.8202 Y3.1050
G01 X27.5198 Y3.1050
G01 X27.4362 Y3.1009
G01 X27.3534 Y3.0886
G01 X27.2718 Y3.0682
G01 X27.1928 Y3.0399
G01 X27.1172 Y3.0042
G01 X27.0448 Y2.9608
G01 X26.9776 Y2.9109
G01 X26.9156 Y2.8547
G01 X26.8589 Y2.7922
G01 X26.8091 Y2.7250
G01 X26.7660 Y2.6530
G01 X26.7301 Y2.5772
G01 X26.7043 Y2.5051
G01 X25.2459 Y2.5051
G01 X25.2210 Y2.5039
G01 X25.1962 Y2.5002
G01 X25.1719 Y2.4941
G01 X25.1485 Y2.4857
G01 X25.1257 Y2.4750
G01 X25.1043 Y2.4621
G01 X25.0841 Y2.4472
G01 X25.0657 Y2.4305
G01 X24.6023 Y1.9671
G01 X19.9720 Y1.9671
G01 X19.9470 Y1.9659
G01 X19.9225 Y1.9623
G01 X19.8979 Y1.9561
G01 X19.8741 Y1.9476
G01 X19.8517 Y1.9370
G01 X19.8305 Y1.9243
G01 X19.8101 Y1.9092
G01 X19.7916 Y1.8924
G01 X16.1343 Y-1.7649
G01 X12.0157 Y-1.7649
G01 X9.6503 Y0.6005
G01 X9.6319 Y0.6172
G01 X9.6119 Y0.6320
G01 X9.5903 Y0.6450
G01 X9.5676 Y0.6557
G01 X9.5443 Y0.6641
G01 X9.5196 Y0.6702
G01 X9.4950 Y0.6739
G01 X9.4700 Y0.6751
G01 X7.0766 Y0.6751
G01 X7.0713 Y0.6899
G01 X7.0417 Y0.7525
G01 X7.0062 Y0.8117
G01 X6.9650 Y0.8672
G01 X6.9185 Y0.9185
G01 X6.8674 Y0.9648
G01 X6.8115 Y1.0063
G01 X6.7523 Y1.0418
G01 X6.6898 Y1.0713
G01 X6.6247 Y1.0946
G01 X6.5578 Y1.1114
G01 X6.4889 Y1.1216
G01 X6.4200 Y1.1250
G01 X6.3507 Y1.1216
G01 X6.2822 Y1.1114
G01 X6.2153 Y1.0946
G01 X6.1504 Y1.0714
G01 X6.0877 Y1.0418
G01 X6.0283 Y1.0062
G01 X5.9728 Y0.9650
G01 X5.9213 Y0.9183
G01 X5.8749 Y0.8671
G01 X5.8338 Y0.8117
G01 X5.7984 Y0.7525
G01 X5.7687 Y0.6898
G01 X5.7453 Y0.6244
G01 X5.7285 Y0.5575
G01 X5.7184 Y0.4893
G01 X5.7150 Y0.4202
G01 X5.7184 Y0.3509
G01 X5.7285 Y0.2825
G01 X5.7454 Y0.2153
G01 X5.7688 Y0.1500
G00 Z0.0010
G00 X6.3561 Y2.8597
G01 F60.00
G01 Z-0.0100
G01 F200.00
G01 X6.4460 Y2.8551
G01 X8.7471 Y2.8551
G01 X8.8334 Y2.8594
G01 X8.9205 Y2.8723
G01 X9.0059 Y2.8937
G01 X9.0875 Y2.9228
G01 X9.1678 Y2.9607
G01 X9.2431 Y3.0058
G01 X9.3139 Y3.0583
G01 X9.3789 Y3.1172
G01 X9.4378 Y3.1822
G01 X9.4903 Y3.2530
G01 X9.5354 Y3.3283
G01 X9.5729 Y3.4076
G01 X9.6024 Y3.4902
G01 X9.6238 Y3.5756
G01 X9.6367 Y3.6627
G01 X9.6410 Y3.7501
G01 X9.6367 Y3.8375
G01 X9.6238 Y3.9246
G01 X9.6024 Y4.0100
G01 X9.5733 Y4.0916
G01 X9.5342 Y4.1739
G01 X9.4903 Y4.2472
G01 X9.4392 Y4.3161
G01 X9.3789 Y4.3830
G01 X9.3120 Y4.4433
G01 X9.2431 Y4.4944
G01 X9.1698 Y4.5383
G01 X9.0885 Y4.5770
G01 X9.0037 Y4.6072
G01 X8.9205 Y4.6279
G01 X8.8359 Y4.6405
G01 X8.7460 Y4.6451
G01 X6.4449 Y4.6451
G01 X6.3586 Y4.6408
G01 X6.2715 Y4.6279
G01 X6.1861 Y4.6065
G01 X6.1045 Y4.5774
G01 X6.0242 Y4.5395
G01 X5.9506 Y4.4954
G01 X5.8765 Y4.4405
G01 X5.8131 Y4.3830
G01 X5.7542 Y4.3180
G01 X5.7017 Y4.2472
G01 X5.6578 Y4.1739
G01 X5.6183 Y4.0905
G01 X5.5896 Y4.0100
G01 X5.5682 Y3.9246
G01 X5.5553 Y3.8375
G01 X5.5511 Y3.7523
G01 X5.5556 Y3.6602
G01 X5.5682 Y3.5756
G01 X5.5896 Y3.4902
G01 X5.6191 Y3.4076
G01 X5.6557 Y3.3302
G01 X5.7031 Y3.2511
G01 X5.7542 Y3.1822
G01 X5.8131 Y3.1172
G01 X5.8781 Y3.0583
G01 X5.9470 Y3.0072
G01 X6.0261 Y2.9598
G01 X6.1035 Y2.9232
G01 X6.1861 Y2.8937
G01 X6.2715 Y2.8723
G01 X6.3561 Y2.8597
G00 Z0.0010
G00 X6.3575 Y2.8696
G01 F60.00
G01 Z-0.0100
G01 F200.00
G01 X6.4460 Y2.8651
G01 X8.7469 Y2.8651
G01 X8.8325 Y2.8693
G01 X8.9186 Y2.8821
G01 X9.0030 Y2.9032
G01 X9.0839 Y2.9322
G01 X9.1631 Y2.9696
G01 X9.2376 Y3.0142
G01 X9.3075 Y3.0660
G01 X9.3718 Y3.1243
G01 X9.4301 Y3.1886
G01 X9.4819 Y3.2585
G01 X9.5265 Y3.3330
G01 X9.5636 Y3.4114
G01 X9.5929 Y3.4931
G01 X9.6140 Y3.5775
G01 X9.6268 Y3.6636
G01 X9.6310 Y3.7501
G01 X9.6268 Y3.8366
G01 X9.6140 Y3.9227
G01 X9.5929 Y4.0071
G01 X9.5639 Y4.0880
G01 X9.5257 Y4.1688
G01 X9.4819 Y4.2417
G01 X9.4312 Y4.3102
G01 X9.3718 Y4.3759
G01 X9.3061 Y4.4353
G01 X9.2376 Y4.4860
G01 X9.1647 Y4.5298
G01 X9.0847 Y4.5677
G01 X9.0012 Y4.5975
G01 X8.9186 Y4.6181
G01 X8.8345 Y4.6306
G01 X8.7460 Y4.6351
G01 X6.4451 Y4.6351
G01 X6.3595 Y4.6309
G01 X6.2734 Y4.6181
G01 X6.1890 Y4.5970
G01 X6.1081 Y4.5680
G01 X6.0289 Y4.5306
G01 X5.9558 Y4.4869
G01 X5.8833 Y4.4331
G01 X5.8202 Y4.3759
G01 X5.7619 Y4.3116
G01 X5.7101 Y4.2417
G01 X5.6663 Y4.1688
G01 X5.6277 Y4.0872
G01 X5.5991 Y4.0071
G01 X5.5780 Y3.9227
G01 X5.5652 Y3.8366
G01 X5.5610 Y3.7518
G01 X5.5655 Y3.6616
G01 X5.5780 Y3.5775
G01 X5.5991 Y3.4931
G01 X5.6284 Y3.4114
G01 X5.6647 Y3.3344
G01 X5.7111 Y3.2570
G01 X5.7619 Y3.1886
G01 X5.8202 Y3.1243
G01 X5.8845 Y3.0660
G01 X5.9529 Y3.0152
G01 X6.0303 Y2.9688
G01 X6.1073 Y2.9325
G01 X6.1890 Y2.9032
G01 X6.2734 Y2.8821
G01 X6.3575 Y2.8696
G00 Z0.0010
G00 X6.3590 Y2.8795
G01 F60.00
G01 Z-0.0100
G01 F200.00
G01 X6.4460 Y2.8751
G01 X8.7466 Y2.8751
G01 X8.8316 Y2.8793
G01 X8.9167 Y2.8919
G01 X9.0000 Y2.9128
G01 X9.0803 Y2.9415
G01 X9.1584 Y2.9784
G01 X9.2320 Y3.0225
G01 X9.3011 Y3.0738
G01 X9.3647 Y3.1314
G01 X9.4223 Y3.1950
G01 X9.4736 Y3.2641
G01 X9.5177 Y3.3377
G01 X9.5544 Y3.4152
G01 X9.5833 Y3.4961
G01 X9.6042 Y3.5794
G01 X9.6168 Y3.6645
G01 X9.6210 Y3.7501
G01 X9.6168 Y3.8357
G01 X9.6042 Y3.9208
G01 X9.5833 Y4.0041
G01 X9.5546 Y4.0844
G01 X9.5171 Y4.1636
G01 X9.4736 Y4.2361
G01 X9.4231 Y4.3042
G01 X9.3647 Y4.3688
G01 X9.3001 Y4.4272
G01 X9.2320 Y4.4777
G01 X9.1595 Y4.5212
G01 X9.0809 Y4.5585
G01 X8.9988 Y4.5878
G01 X8.9167 Y4.6083
G01 X8.8330 Y4.6207
G01 X8.7460 Y4.6251
G01 X6.4454 Y4.6251
G01 X6.3604 Y4.6209
G01 X6.2753 Y4.6083
G01 X6.1920 Y4.5874
G01 X6.1117 Y4.5587
G01 X6.0336 Y4.5218
G01 X5.9609 Y4.4783
G01 X5.8900 Y4.4257
G01 X5.8273 Y4.3688
G01 X5.7697 Y4.3052
G01 X5.7184 Y4.2361
G01 X5.6749 Y4.1636
G01 X5.6372 Y4.0838
G01 X5.6087 Y4.0041
G01 X5.5878 Y3.9208
G01 X5.5752 Y3.8357
G01 X5.5710 Y3.7513
G01 X5.5754 Y3.6631
G01 X5.5878 Y3.5794
G01 X5.6087 Y3.4961
G01 X5.6376 Y3.4152
G01 X5.6738 Y3.3387
G01 X5.7192 Y3.2630
G01 X5.7697 Y3.1950
G01 X5.8273 Y3.1314
G01 X5.8909 Y3.0738
G01 X5.9589 Y3.0233
G01 X6.0346 Y2.9779
G01 X6.1111 Y2.9417
G01 X6.1920 Y2.9128
G01 X6.2753 Y2.8919
G01 X6.3590 Y2.8795
G00 Z0.0010
G00 X6.3605 Y2.8894
G01 F60.00
G01 Z-0.0100
G01 F200.00
G01 X6.4460 Y2.8851
G01 X8.7464 Y2.8851
G01 X8.8307 Y2.8893
G01 X8.9147 Y2.9017
G01 X8.9971 Y2.9224
G01 X9.0767 Y2.9508
G01 X9.1537 Y2.9872
G01 X9.2265 Y3.0308
G01 X9.2948 Y3.0815
G01 X9.3576 Y3.1385
G01 X9.4146 Y3.2013
G01 X9.4653 Y3.2696
G01 X9.5089 Y3.3424
G01 X9.5452 Y3.4191
G01 X9.5737 Y3.4990
G01 X9.5944 Y3.5814
G01 X9.6068 Y3.6654
G01 X9.6110 Y3.7501
G01 X9.6068 Y3.8348
G01 X9.5944 Y3.9188
G01 X9.5737 Y4.0012
G01 X9.5453 Y4.0808
G01 X9.5085 Y4.1585
G01 X9.4653 Y4.2306
G01 X9.4151 Y4.2983
G01 X9.3576 Y4.3617
G01 X9.2942 Y4.4192
G01 X9.2265 Y4.4694
G01 X9.1544 Y4.5126
G01 X9.0770 Y4.5493
G01 X8.9964 Y4.5780
G01 X8.9147 Y4.5985
G01 X8.8315 Y4.6108
G01 X8.7460 Y4.6151
G01 X6.4456 Y4.6151
G01 X6.3613 Y4.6109
G01 X6.2773 Y4.5985
G01 X6.1949 Y4.5778
G01 X6.1153 Y4.5494
G01 X6.0383 Y4.5130
G01 X5.9661 Y4.4697
G01 X5.8967 Y4.4183
G01 X5.8344 Y4.3617
G01 X5.7774 Y4.2989
G01 X5.7267 Y4.2306
G01 X5.6835 Y4.1585
G01 X5.6466 Y4.0804
G01 X5.6183 Y4.0012
G01 X5.5976 Y3.9188
G01 X5.5852 Y3.8348
G01 X5.5810 Y3.7508
G01 X5.5853 Y3.6646
G01 X5.5976 Y3.5814
G01 X5.6183 Y3.4990
G01 X5.6468 Y3.4191
G01 X5.6828 Y3.3430
G01 X5.7272 Y3.2689
G01 X5.7774 Y3.2013
G01 X5.8344 Y3.1385
G01 X5.8972 Y3.0815
G01 X5.9648 Y3.0313
G01 X6.0389 Y2.9869
G01 X6.1150 Y2.9509
G01 X6.1949 Y2.9224
G01 X6.2773 Y2.9017
G01 X6.3605 Y2.8894
G00 Z0.0010
G00 X6.3620 Y2.8992
G01 F60.00
G01 Z-0.0100
G01 F200.00
G01 X6.4460 Y2.8951
G01 X8.7461 Y2.8951
G01 X8.8298 Y2.8992
G01 X8.9126 Y2.9115
G01 X8.9943 Y2.9320
G01 X9.0732 Y2.9602
G01 X9.1490 Y2.9961
G01 X9.2210 Y3.0392
G01 X9.2884 Y3.0892
G01 X9.3506 Y3.1455
G01 X9.4069 Y3.2077
G01 X9.4569 Y3.2751
G01 X9.5000 Y3.3471
G01 X9.5359 Y3.4229
G01 X9.5642 Y3.5019
G01 X9.5846 Y3.5833
G01 X9.5969 Y3.6663
G01 X9.6010 Y3.7501
G01 X9.5969 Y3.8339
G01 X9.5846 Y3.9169
G01 X9.5641 Y3.9984
G01 X9.5359 Y4.0773
G01 X9.5002 Y4.1529
G01 X9.4569 Y4.2251
G01 X9.4068 Y4.2927
G01 X9.3506 Y4.3547
G01 X9.2886 Y4.4109
G01 X9.2210 Y4.4610
G01 X9.1488 Y4.5043
G01 X9.0732 Y4.5400
G01 X8.9944 Y4.5682
G01 X8.9127 Y4.5887
G01 X8.8298 Y4.6010
G01 X8.7460 Y4.6051
G01 X6.4460 Y4.6051
G01 X6.3622 Y4.6010
G01 X6.2794 Y4.5887
G01 X6.1977 Y4.5682
G01 X6.1188 Y4.5400
G01 X6.0430 Y4.5041
G01 X5.9710 Y4.4610
G01 X5.9038 Y4.4112
G01 X5.8413 Y4.3545
G01 X5.7851 Y4.2925
G01 X5.7351 Y4.2251
G01 X5.6920 Y4.1531
G01 X5.6562 Y4.0775
G01 X5.6278 Y3.9981
G01 X5.6074 Y3.9169
G01 X5.5951 Y3.8339
G01 X5.5910 Y3.7501
G01 X5.5951 Y3.6663
G01 X5.6074 Y3.5833
G01 X5.6278 Y3.5021
G01 X5.6562 Y3.4227
G01 X5.6920 Y3.3471
G01 X5.7351 Y3.2751
G01 X5.7851 Y3.2077
G01 X5.8414 Y3.1455
G01 X5.9036 Y3.0892
G01 X5.9708 Y3.0393
G01 X6.0432 Y2.9959
G01 X6.1188 Y2.9602
G01 X6.1978 Y2.9319
G01 X6.2792 Y2.9115
G01 X6.3620 Y2.8992
G00 Z0.0010
G00 X6.3561 Y7.9497
G01 F60.00
G01 Z-0.0100
G01 F200.00
G01 X6.4460 Y7.9451
G01 X8.7471 Y7.9451
G01 X8.8334 Y7.9494
G01 X8.9205 Y7.9623
G01 X9.0059 Y7.9837
G01 X9.0875 Y8.0128
G01 X9.1678 Y8.0507
G01 X9.2431 Y8.0958
G01 X9.3139 Y8.1483
G01 X9.3789 Y8.2072
G01 X9.4378 Y8.2722
G01 X9.4903 Y8.3430
G01 X9.5354 Y8.4183
G01 X9.5729 Y8.4976
G01 X9.6024 Y8.5802
G01 X9.6238 Y8.6656
G01 X9.6367 Y8.7527
G01 X9.6410 Y8.8401
G01 X9.6367 Y8.9275
G01 X9.6238 Y9.0146
G01 X9.6024 Y9.1000
G01 X9.5733 Y9.1816
G01 X9.5342 Y9.2639
G01 X9.4903 Y9.3372
G01 X9.4392 Y9.4061
G01 X9.3789 Y9.4730
G01 X9.3120 Y9.5333
G01 X9.2431 Y9.5844
G01 X9.1698 Y9.6283
G01 X9.0885 Y9.6670
G01 X9.0037 Y9.6972
G01 X8.9205 Y9.7179
G01 X8.8359 Y9.7305
G01 X8.7460 Y9.7351
G01 X6.4449 Y9.7351
G01 X6.3586 Y9.7308
G01 X6.2715 Y9.7179
G01 X6.1861 Y9.6965
G01 X6.1045 Y9.6674
G01 X6.0242 Y9.6295
G01 X5.9506 Y9.5854
G01 X5.8765 Y9.5305
G01 X5.8131 Y9.4730
G01 X5.7542 Y9.4080
G01 X5.7017 Y9.3372
G01 X5.6578 Y9.2639
G01 X5.6183 Y9.1805
G01 X5.5896 Y9.1000
G01 X5.5682 Y9.0146
G01 X5.5553 Y8.9275
G01 X5.5511 Y8.8423
G01 X5.5556 Y8.7502
G01 X5.5682 Y8.6656
G01 X5.5896 Y8.5802
G01 X5.6191 Y8.4976
G01 X5.6557 Y8.4202
G01 X5.7031 Y8.3411
G01 X5.7542 Y8.2722
G01 X5.8131 Y8.2072
G01 X5.8781 Y8.1483
G01 X5.9470 Y8.0972
G01 X6.0261 Y8.0498
G01 X6.1035 Y8.0132
G01 X6.1861 Y7.9837
G01 X6.2715 Y7.9623
G01 X6.3561 Y7.9497
G00 Z0.0010
G00 X6.3575 Y7.9596
G01 F60.00
G01 Z-0.0100
G01 F200.00
G01 X6.4460 Y7.9551
G01 X8.7469 Y7.9551
G01 X8.8325 Y7.9593
G01 X8.9186 Y7.9721
G01 X9.0030 Y7.9932
G01 X9.0839 Y8.0222
G01 X9.1631 Y8.0596
G01 X9.2376 Y8.1042
G01 X9.3075 Y8.1560
G01 X9.3718 Y8.2143
G01 X9.4301 Y8.2786
G01 X9.4819 Y8.3485
G01 X9.5265 Y8.4230
G01 X9.5636 Y8.5014
G01 X9.5929 Y8.5831
G01 X9.6140 Y8.6675
G01 X9.6268 Y8.7536
G01 X9.6310 Y8.8401
G01 X9.6268 Y8.9266
G01 X9.6140 Y9.0127
G01 X9.5929 Y9.0971
G01 X9.5639 Y9.1780
G01 X9.5257 Y9.2588
G01 X9.4819 Y9.3317
G01 X9.4312 Y9.4002
G01 X9.3718 Y9.4659
G01 X9.3061 Y9.5253
G01 X9.2376 Y9.5760
G01 X9.1647 Y9.6198
G01 X9.0847 Y9.6577
G01 X9.0012 Y9.6875
G01 X8.9186 Y9.7081
G01 X8.8345 Y9.7206
G01 X8.7460 Y9.7251
G01 X6.4451 Y9.7251
G01 X6.3595 Y9.7209
G01 X6.2734 Y9.7081
G01 X6.1890 Y9.6870
G01 X6.1081 Y9.6580
G01 X6.0289 Y9.6206
G01 X5.9558 Y9.5769
G01 X5.8833 Y9.5231
G01 X5.8202 Y9.4659
G01 X5.7619 Y9.4016
G01 X5.7101 Y9.3317
G01 X5.6663 Y9.2588
G01 X5.6277 Y9.1772
G01 X5.5991 Y9.0971
G01 X5.5780 Y9.0127
G01 X5.5652 Y8.9266
G01 X5.5610 Y8.8418
G01 X5.5655 Y8.7516
G01 X5.5780 Y8.6675
G01 X5.5991 Y8.5831
G01 X5.6284 Y8.5014
G01 X5.6647 Y8.4244
G01 X5.7111 Y8.3470
G01 X5.7619 Y8.2786
G01 X5.8202 Y8.2143
G01 X5.8845 Y8.1560
G01 X5.9529 Y8.1052
G01 X6.0303 Y8.0588
G01 X6.1073 Y8.0225
G01 X6.1890 Y7.9932
G01 X6.2734 Y7.9721
G01 X6.3575 Y7.9596
G00 Z0.0010
G00 X6.3590 Y7.9695
G01 F60.00
G01 Z-0.0100
G01 F200.00
G01 X6.4460 Y7.9651
G01 X8.7466 Y7.9651
G01 X8.8316 Y7.9693
G01 X8.9167 Y7.9819
G01 X9.0000 Y8.0028
G01 X9.0803 Y8.0315
G01 X9.1584 Y8.0684
G01 X9.2320 Y8.1125
G01 X9.3011 Y8.1638
G01 X9.3647 Y8.2214
G01 X9.4223 Y8.2850
G01 X9.4736 Y8.3541
G01 X9.5177 Y8.4277
G01 X9.5544 Y8.5052
G01 X9.5833 Y8.5861
G01 X9.6042 Y8.6694
G01 X9.6168 Y8.7545
G01 X9.6210 Y8.8401
G01 X9.6168 Y8.9257
G01 X9.6042 Y9.0108
G01 X9.5833 Y9.0941
G01 X9.5546 Y9.1744
G01 X9.5171 Y9.2536
G01 X9.4736 Y9.3261
G01 X9.4231 Y9.3942
G01 X9.3647 Y9.4588
G01 X9.3001 Y9.5172
G01 X9.2320 Y9.5677
G01 X9.1595 Y9.6112
G01 X9.0809 Y9.6485
G01 X8.9988 Y9.6778
G01 X8.9167 Y9.6983
G01 X8.8330 Y9.7107
G01 X8.7460 Y9.7151
G01 X6.4454 Y9.7151
G01 X6.3604 Y9.7109
G01 X6.2753 Y9.6983
G01 X6.1920 Y9.6774
G01 X6.1117 Y9.6487
G01 X6.0336 Y9.6118
G01 X5.9609 Y9.5683
G01 X5.8900 Y9.5157
G01 X5.8273 Y9.4588
G01 X5.7697 Y9.3952
G01 X5.7184 Y9.3261
G01 X5.6749 Y9.2536
G01 X5.6372 Y9.1738
G01 X5.6087 Y9.0941
G01 X5.5878 Y9.0108
G01 X5.5752 Y8.9257
G01 X5.5710 Y8.8413
G01 X5.5754 Y8.7531
G01 X5.5878 Y8.6694
G01 X5.6087 Y8.5861
G01 X5.6376 Y8.5052
G01 X5.6738 Y8.4287
G01 X5.7192 Y8.3530
G01 X5.7697 Y8.2850
G01 X5.8273 Y8.2214
G01 X5.8909 Y8.1638
G01 X5.9589 Y8.1133
G01 X6.0346 Y8.0679
G01 X6.1111 Y8.0317
G01 X6.1920 Y8.0028
G01 X6.2753 Y7.9819
G01 X6.3590 Y7.9695
G00 Z0.0010
G00 X6.3605 Y7.9794
G01 F60.00
G01 Z-0.0100
G01 F200.00
G01 X6.4460 Y7.9751
G01 X8.7464 Y7.9751
G01 X8.8307 Y7.9793
G01 X8.9147 Y7.9917
G01 X8.9971 Y8.0124
G01 X9.0767 Y8.0408
G01 X9.1537 Y8.0772
G01 X9.2265 Y8.1208
G01 X9.2948 Y8.1715
G01 X9.3576 Y8.2285
G01 X9.4146 Y8.2913
G01 X9.4653 Y8.3596
G01 X9.5089 Y8.4324
G01 X9.5452 Y8.5091
G01 X9.5737 Y8.5890
G01 X9.5944 Y8.6714
G01 X9.6068 Y8.7554
G01 X9.6110 Y8.8401
G01 X9.6068 Y8.9248
G01 X9.5944 Y9.0088
G01 X9.5737 Y9.0912
G01 X9.5453 Y9.1708
G01 X9.5085 Y9.2485
G01 X9.4653 Y9.3206
G01 X9.4151 Y9.3883
G01 X9.3576 Y9.4517
G01 X9.2942 Y9.5092
G01 X9.2265 Y9.5594
G01 X9.1544 Y9.6026
G01 X9.0770 Y9.6393
G01 X8.9964 Y9.6680
G01 X8.9147 Y9.6885
G01 X8.8315 Y9.7008
G01 X8.7460 Y9.7051
G01 X6.4456 Y9.7051
G01 X6.3613 Y9.7009
G01 X6.2773 Y9.6885
G01 X6.1949 Y9.6678
G01 X6.1153 Y9.6394
G01 X6.0383 Y9.6030
G01 X5.9661 Y9.5597
G01 X5.8967 Y9.5083
G01 X5.8344 Y9.4517
G01 X5.7774 Y9.3889
G01 X5.7267 Y9.3206
G01 X5.6835 Y9.2485
G01 X5.6466 Y9.1704
G01 X5.6183 Y9.0912
G01 X5.5976 Y9.0088
G01 X5.5852 Y8.9248
G01 X5.5810 Y8.8408
G01 X5.5853 Y8.7546
G01 X5.5976 Y8.6714
G01 X5.6183 Y8.5890
G01 X5.6468 Y8.5091
G01 X5.6828 Y8.4330
G01 X5.7272 Y8.3589
G01 X5.7774 Y8.2913
G01 X5.8344 Y8.2285
G01 X5.8972 Y8.1715
G01 X5.9648 Y8.1213
G01 X6.0389 Y8.0769
G01 X6.1150 Y8.0409
G01 X6.1949 Y8.0124
G01 X6.2773 Y7.9917
G01 X6.3605 Y7.9794
G00 Z0.0010
G00 X6.3620 Y7.9892
G01 F60.00
G01 Z-0.0100
G01 F200.00
G01 X6.4460 Y7.9851
G01 X8.7461 Y7.9851
G01 X8.8298 Y7.9892
G01 X8.9126 Y8.0015
G01 X8.9943 Y8.0220
G01 X9.0732 Y8.0502
G01 X9.1490 Y8.0861
G01 X9.2210 Y8.1292
G01 X9.2884 Y8.1792
G01 X9.3506 Y8.2355
G01 X9.4069 Y8.2977
G01 X9.4569 Y8.3651
G01 X9.5000 Y8.4371
G01 X9.5359 Y8.5129
G01 X9.5642 Y8.5919
G01 X9.5846 Y8.6733
G01 X9.5969 Y8.7563
G01 X9.6010 Y8.8401
G01 X9.5969 Y8.9239
G01 X9.5846 Y9.0069
G01 X9.5641 Y9.0884
G01 X9.5359 Y9.1673
G01 X9.5002 Y9.2429
G01 X9.4569 Y9.3151
G01 X9.4068 Y9.3827
G01 X9.3506 Y9.4447
G01 X9.2886 Y9.5009
G01 X9.2210 Y9.5510
G01 X9.1488 Y9.5943
G01 X9.0732 Y9.6300
G01 X8.9944 Y9.6582
G01 X8.9127 Y9.6787
G01 X8.8298 Y9.6910
G01 X8.7460 Y9.6951
G01 X6.4460 Y9.6951
G01 X6.3622 Y9.6910
G01 X6.2794 Y9.6787
G01 X6.1977 Y9.6582
G01 X6.1188 Y9.6300
G01 X6.0430 Y9.5941
G01 X5.9710 Y9.5510
G01 X5.9038 Y9.5012
G01 X5.8413 Y9.4445
G01 X5.7851 Y9.3825
G01 X5.7351 Y9.3151
G01 X5.6920 Y9.2431
G01 X5.6562 Y9.1675
G01 X5.6278 Y9.0881
G01 X5.6074 Y9.0069
G01 X5.5951 Y8.9239
G01 X5.5910 Y8.8401
G01 X5.5951 Y8.7563
G01 X5.6074 Y8.6733
G01 X5.6278 Y8.5921
G01 X5.6562 Y8.5127
G01 X5.6920 Y8.4371
G01 X5.7351 Y8.3651
G01 X5.7851 Y8.2977
G01 X5.8414 Y8.2355
G01 X5.9036 Y8.1792
G01 X5.9708 Y8.1293
G01 X6.0432 Y8.0859
G01 X6.1188 Y8.0502
G01 X6.1978 Y8.0219
G01 X6.2792 Y8.0015
G01 X6.3620 Y7.9892
G00 Z0.0010
G00 X12.8683 Y11.3258
G01 F60.00
G01 Z-0.0100
G01 F200.00
G01 X12.8760 Y11.3251
G01 X15.8760 Y11.3251
G01 X15.8815 Y11.3254
G01 X15.8859 Y11.3262
G01 X15.8912 Y11.3277
G01 X15.8963 Y11.3299
G01 X15.9010 Y11.3327
G01 X15.9062 Y11.3368
G01 X15.9101 Y11.3407
G01 X15.9140 Y11.3460
G01 X15.9171 Y11.3518
G01 X15.9191 Y11.3570
G01 X15.9205 Y11.3635
G01 X15.9210 Y11.3690
G01 X15.9210 Y12.8701
G01 X15.9207 Y12.8756
G01 X15.9199 Y12.8800
G01 X15.9184 Y12.8853
G01 X15.9162 Y12.8904
G01 X15.9134 Y12.8951
G01 X15.9093 Y12.9003
G01 X15.9046 Y12.9049
G01 X15.8992 Y12.9087
G01 X15.8933 Y12.9117
G01 X15.8880 Y12.9135
G01 X15.8826 Y12.9146
G01 X15.8760 Y12.9151
G01 X12.8760 Y12.9151
G01 X12.8716 Y12.9149
G01 X12.8661 Y12.9140
G01 X12.8608 Y12.9125
G01 X12.8557 Y12.9103
G01 X12.8510 Y12.9075
G01 X12.8458 Y12.9034
G01 X12.8412 Y12.8987
G01 X12.8380 Y12.8942
G01 X12.8349 Y12.8884
G01 X12.8329 Y12.8832
G01 X12.8317 Y12.8778
G01 X12.8310 Y12.8712
G01 X12.8310 Y11.3701
G01 X12.8317 Y11.3624
G01 X12.8336 Y11.3549
G01 X12.8369 Y11.3479
G01 X12.8412 Y11.3415
G01 X12.8474 Y11.3353
G01 X12.8538 Y11.3310
G01 X12.8608 Y11.3277
G01 X12.8683 Y11.3258
G00 Z0.0010
G00 X12.8700 Y11.3356
G01 F60.00
G01 Z-0.0100
G01 F200.00
G01 X12.8760 Y11.3351
G01 X15.8760 Y11.3351
G01 X15.8837 Y11.3360
G01 X15.8878 Y11.3372
G01 X15.8918 Y11.3389
G01 X15.8955 Y11.3410
G01 X15.8995 Y11.3442
G01 X15.9030 Y11.3479
G01 X15.9060 Y11.3521
G01 X15.9083 Y11.3567
G01 X15.9097 Y11.3607
G01 X15.9106 Y11.3650
G01 X15.9110 Y11.3701
G01 X15.9110 Y12.8701
G01 X15.9101 Y12.8778
G01 X15.9089 Y12.8819
G01 X15.9072 Y12.8859
G01 X15.9051 Y12.8896
G01 X15.9019 Y12.8936
G01 X15.8982 Y12.8971
G01 X15.8940 Y12.9001
G01 X15.8894 Y12.9024
G01 X15.8854 Y12.9038
G01 X15.8811 Y12.9047
G01 X15.8760 Y12.9051
G01 X12.8760 Y12.9051
G01 X12.8683 Y12.9042
G01 X12.8642 Y12.9030
G01 X12.8602 Y12.9013
G01 X12.8565 Y12.8992
G01 X12.8525 Y12.8960
G01 X12.8495 Y12.8930
G01 X12.8464 Y12.8888
G01 X12.8440 Y12.8843
G01 X12.8425 Y12.8803
G01 X12.8414 Y12.8752
G01 X12.8410 Y12.8710
G01 X12.8410 Y11.3701
G01 X12.8415 Y11.3641
G01 X12.8431 Y11.3583
G01 X12.8456 Y11.3528
G01 X12.8490 Y11.3479
G01 X12.8531 Y11.3436
G01 X12.8587 Y11.3397
G01 X12.8642 Y11.3372
G01 X12.8700 Y11.3356
G00 Z0.0010
G00 X12.8717 Y11.3455
G01 F60.00
G01 Z-0.0100
G01 F200.00
G01 X12.8760 Y11.3451
G01 X15.8760 Y11.3451
G01 X15.8815 Y11.3457
G01 X15.8873 Y11.3478
G01 X15.8928 Y11.3516
G01 X15.8953 Y11.3542
G01 X15.8974 Y11.3572
G01 X15.9001 Y11.3634
G01 X15.9010 Y11.3701
G01 X15.9010 Y12.8701
G01 X15.9004 Y12.8756
G01 X15.8983 Y12.8814
G01 X15.8945 Y12.8869
G01 X15.8919 Y12.8894
G01 X15.8889 Y12.8915
G01 X15.8827 Y12.8942
G01 X15.8760 Y12.8951
G01 X12.8760 Y12.8951
G01 X12.8705 Y12.8945
G01 X12.8647 Y12.8924
G01 X12.8592 Y12.8886
G01 X12.8567 Y12.8860
G01 X12.8546 Y12.8830
G01 X12.8519 Y12.8768
G01 X12.8510 Y12.8701
G01 X12.8510 Y11.3701
G01 X12.8514 Y11.3658
G01 X12.8525 Y11.3617
G01 X12.8543 Y11.3578
G01 X12.8567 Y11.3542
G01 X12.8597 Y11.3512
G01 X12.8637 Y11.3484
G01 X12.8676 Y11.3466
G01 X12.8717 Y11.3455
G00 Z0.0010
G00 X12.8734 Y11.3553
G01 F60.00
G01 Z-0.0100
G01 F200.00
G01 X15.8760 Y11.3551
G01 X15.8793 Y11.3555
G01 X15.8828 Y11.3567
G01 X15.8861 Y11.3590
G01 X15.8889 Y11.3624
G01 X15.8905 Y11.3661
G01 X15.8910 Y11.3701
G01 X15.8910 Y12.8701
G01 X15.8906 Y12.8734
G01 X15.8894 Y12.8769
G01 X15.8871 Y12.8802
G01 X15.8837 Y12.8830
G01 X15.8800 Y12.8846
G01 X15.8760 Y12.8851
G01 X12.8760 Y12.8851
G01 X12.8727 Y12.8847
G01 X12.8692 Y12.8835
G01 X12.8659 Y12.8812
G01 X12.8631 Y12.8778
G01 X12.8615 Y12.8741
G01 X12.8610 Y12.8701
G01 X12.8610 Y11.3701
G01 X12.8619 Y11.3650
G01 X12.8644 Y11.3606
G01 X12.8665 Y11.3585
G01 X12.8686 Y11.3571
G01 X12.8734 Y11.3553
G00 Z0.0010
G00 X12.8751 Y11.3652
G01 F60.00
G01 Z-0.0100
G01 F200.00
G01 X15.8760 Y11.3651
G01 X15.8783 Y11.3656
G01 X15.8803 Y11.3675
G01 X15.8810 Y11.3701
G01 X15.8810 Y12.8701
G01 X15.8805 Y12.8724
G01 X15.8786 Y12.8744
G01 X15.8760 Y12.8751
G01 X12.8760 Y12.8751
G01 X12.8737 Y12.8746
G01 X12.8717 Y12.8727
G01 X12.8710 Y12.8701
G01 X12.8710 Y11.3701
G01 X12.8713 Y11.3684
G01 X12.8721 Y11.3669
G01 X12.8735 Y11.3658
G01 X12.8751 Y11.3652
G00 Z0.0010
G00 X15.1645 Y17.8519
G01 F60.00
G01 Z-0.0100
G01 F200.00
G01 X15.3104 Y17.8885
G01 X15.4296 Y17.9311
G01 X20.0063 Y13.3543
G01 X20.0277 Y13.3349
G01 X20.0512 Y13.3175
G01 X20.0760 Y13.3027
G01 X20.1031 Y13.2899
G01 X20.1293 Y13.2806
G01 X20.1575 Y13.2735
G01 X20.1860 Y13.2693
G01 X20.2150 Y13.2679
G01 X27.2388 Y13.2679
G01 X28.5261 Y11.9806
G01 X28.5261 Y5.6850
G01 X27.5200 Y5.6850
G01 X27.4336 Y5.6808
G01 X27.3455 Y5.6678
G01 X27.2601 Y5.6464
G01 X27.1775 Y5.6169
G01 X27.0972 Y5.5788
G01 X27.0229 Y5.5343
G01 X26.9540 Y5.4832
G01 X26.8856 Y5.4213
G01 X26.8282 Y5.3579
G01 X26.7757 Y5.2871
G01 X26.7306 Y5.2118
G01 X26.6940 Y5.1345
G01 X26.6629 Y5.0477
G01 X26.6422 Y4.9645
G01 X26.6293 Y4.8774
G01 X26.6250 Y4.7900
G01 X26.6291 Y4.7045
G01 X26.6427 Y4.6132
G01 X26.6636 Y4.5301
G01 X26.6923 Y4.4496
G01 X26.7306 Y4.3682
G01 X26.7771 Y4.2910
G01 X26.8282 Y4.2221
G01 X26.8871 Y4.1571
G01 X26.9521 Y4.0982
G01 X27.0210 Y4.0471
G01 X27.0982 Y4.0006
G01 X27.1775 Y3.9631
G01 X27.2581 Y3.9342
G01 X27.3465 Y3.9120
G01 X27.4326 Y3.8993
G01 X27.5200 Y3.8950
G01 X28.8200 Y3.8950
G01 X28.9083 Y3.8994
G01 X28.9945 Y3.9122
G01 X29.0799 Y3.9336
G01 X29.1625 Y3.9631
G01 X29.2399 Y3.9997
G01 X29.3190 Y4.0471
G01 X29.3879 Y4.0982
G01 X29.4536 Y4.1579
G01 X29.5118 Y4.2221
G01 X29.5643 Y4.2929
G01 X29.6094 Y4.3682
G01 X29.6469 Y4.4475
G01 X29.6764 Y4.5301
G01 X29.6978 Y4.6155
G01 X29.7107 Y4.7026
G01 X29.7149 Y4.7922
G01 X29.7107 Y4.8774
G01 X29.6982 Y4.9624
G01 X29.6764 Y5.0499
G01 X29.6469 Y5.1325
G01 X29.6103 Y5.2099
G01 X29.5636 Y5.2881
G01 X29.5118 Y5.3579
G01 X29.4544 Y5.4213
G01 X29.3871 Y5.4824
G01 X29.3171 Y5.5343
G01 X29.2428 Y5.5788
G01 X29.1636 Y5.6164
G01 X29.1163 Y5.6335
G01 X29.1163 Y12.1028
G01 X29.1149 Y12.1318
G01 X29.1107 Y12.1603
G01 X29.1029 Y12.1906
G01 X29.0938 Y12.2158
G01 X29.0815 Y12.2418
G01 X29.0653 Y12.2686
G01 X29.0493 Y12.2901
G01 X29.0307 Y12.3107
G01 X27.5689 Y13.7725
G01 X27.5483 Y13.7911
G01 X27.5248 Y13.8085
G01 X27.5000 Y13.8233
G01 X27.4740 Y13.8356
G01 X27.4467 Y13.8454
G01 X27.4185 Y13.8525
G01 X27.3900 Y13.8567
G01 X27.3610 Y13.8581
G01 X20.3372 Y13.8581
G01 X15.9369 Y18.2585
G01 X15.9560 Y18.2761
G01 X16.0575 Y18.3884
G01 X16.1467 Y18.5088
G01 X16.2256 Y18.6407
G01 X16.2894 Y18.7757
G01 X16.3405 Y18.9186
G01 X16.3773 Y19.0655
G01 X16.3997 Y19.2178
G01 X16.4070 Y19.3670
G01 X16.3996 Y19.5185
G01 X16.3773 Y19.6685
G01 X16.3405 Y19.8154
G01 X16.2894 Y19.9583
G01 X16.2247 Y20.0951
G01 X16.1467 Y20.2252
G01 X16.0562 Y20.3472
G01 X15.9545 Y20.4595
G01 X15.8438 Y20.5599
G01 X15.7202 Y20.6517
G01 X15.5883 Y20.7306
G01 X15.4533 Y20.7944
G01 X15.3126 Y20.8448
G01 X15.1635 Y20.8823
G01 X15.0112 Y20.9047
G01 X14.8620 Y20.9120
G01 X14.7128 Y20.9047
G01 X14.5605 Y20.8823
G01 X14.4136 Y20.8455
G01 X14.2707 Y20.7944
G01 X14.1339 Y20.7297
G01 X14.0038 Y20.6517
G01 X13.8818 Y20.5612
G01 X13.7695 Y20.4595
G01 X13.6678 Y20.3472
G01 X13.5773 Y20.2252
G01 X13.4993 Y20.0951
G01 X13.4346 Y19.9583
G01 X13.3835 Y19.8154
G01 X13.3467 Y19.6685
G01 X13.3244 Y19.5185
G01 X13.3170 Y19.3670
G01 X13.3244 Y19.2155
G01 X13.3467 Y19.0655
G01 X13.3835 Y18.9186
G01 X13.4346 Y18.7757
G01 X13.4993 Y18.6389
G01 X13.5773 Y18.5088
G01 X13.6678 Y18.3868
G01 X13.7695 Y18.2745
G01 X13.8818 Y18.1728
G01 X14.0038 Y18.0823
G01 X14.1339 Y18.0043
G01 X14.2707 Y17.9396
G01 X14.4136 Y17.8885
G01 X14.5605 Y17.8517
G01 X14.7105 Y17.8294
G01 X14.8620 Y17.8220
G01 X15.0135 Y17.8294
G01 X15.1645 Y17.8519
G00 Z0.0010
G00 X15.1623 Y17.8617
G01 F60.00
G01 Z-0.0100
G01 F200.00
G01 X15.3075 Y17.8981
G01 X15.4322 Y17.9426
G01 X20.0134 Y13.3614
G01 X20.0340 Y13.3427
G01 X20.0567 Y13.3259
G01 X20.0806 Y13.3115
G01 X20.1067 Y13.2993
G01 X20.1322 Y13.2902
G01 X20.1594 Y13.2833
G01 X20.1870 Y13.2793
G01 X20.2150 Y13.2779
G01 X27.2429 Y13.2779
G01 X28.5361 Y11.9847
G01 X28.5361 Y5.6750
G01 X27.5200 Y5.6750
G01 X27.4343 Y5.6708
G01 X27.3474 Y5.6580
G01 X27.2630 Y5.6369
G01 X27.1813 Y5.6076
G01 X27.1021 Y5.5701
G01 X27.0284 Y5.5259
G01 X26.9599 Y5.4752
G01 X26.8930 Y5.4145
G01 X26.8359 Y5.3515
G01 X26.7841 Y5.2816
G01 X26.7395 Y5.2071
G01 X26.7031 Y5.1302
G01 X26.6726 Y5.0452
G01 X26.6520 Y4.9626
G01 X26.6392 Y4.8765
G01 X26.6350 Y4.7900
G01 X26.6391 Y4.7050
G01 X26.6524 Y4.6157
G01 X26.6731 Y4.5330
G01 X26.7017 Y4.4529
G01 X26.7395 Y4.3729
G01 X26.7851 Y4.2969
G01 X26.8359 Y4.2285
G01 X26.8942 Y4.1642
G01 X26.9585 Y4.1059
G01 X27.0269 Y4.0551
G01 X27.1029 Y4.0095
G01 X27.1813 Y3.9724
G01 X27.2615 Y3.9436
G01 X27.3482 Y3.9218
G01 X27.4335 Y3.9092
G01 X27.5200 Y3.9050
G01 X28.8200 Y3.9050
G01 X28.9072 Y3.9093
G01 X28.9926 Y3.9220
G01 X29.0770 Y3.9431
G01 X29.1587 Y3.9724
G01 X29.2357 Y4.0087
G01 X29.3131 Y4.0551
G01 X29.3815 Y4.1059
G01 X29.4464 Y4.1648
G01 X29.5041 Y4.2285
G01 X29.5559 Y4.2984
G01 X29.6005 Y4.3729
G01 X29.6376 Y4.4513
G01 X29.6669 Y4.5330
G01 X29.6880 Y4.6174
G01 X29.7008 Y4.7035
G01 X29.7050 Y4.7917
G01 X29.7008 Y4.8765
G01 X29.6883 Y4.9610
G01 X29.6669 Y5.0470
G01 X29.6376 Y5.1287
G01 X29.6013 Y5.2057
G01 X29.5554 Y5.2823
G01 X29.5041 Y5.3515
G01 X29.4470 Y5.4145
G01 X29.3802 Y5.4751
G01 X29.3116 Y5.5259
G01 X29.2379 Y5.5701
G01 X29.1587 Y5.6076
G01 X29.1063 Y5.6264
G01 X29.1063 Y12.1028
G01 X29.1049 Y12.1308
G01 X29.1009 Y12.1584
G01 X29.0935 Y12.1872
G01 X29.0846 Y12.2119
G01 X29.0727 Y12.2372
G01 X29.0573 Y12.2626
G01 X29.0415 Y12.2838
G01 X29.0234 Y12.3038
G01 X27.5620 Y13.7652
G01 X27.5420 Y13.7833
G01 X27.5193 Y13.8001
G01 X27.4954 Y13.8145
G01 X27.4701 Y13.8264
G01 X27.4438 Y13.8358
G01 X27.4166 Y13.8427
G01 X27.3890 Y13.8467
G01 X27.3610 Y13.8481
G01 X20.3331 Y13.8481
G01 X15.9224 Y18.2588
G01 X15.9480 Y18.2822
G01 X16.0495 Y18.3944
G01 X16.1384 Y18.5143
G01 X16.2162 Y18.6443
G01 X16.2801 Y18.7796
G01 X16.3309 Y18.9215
G01 X16.3675 Y19.0675
G01 X16.3897 Y19.2183
G01 X16.3970 Y19.3670
G01 X16.3896 Y19.5175
G01 X16.3675 Y19.6665
G01 X16.3309 Y19.8125
G01 X16.2801 Y19.9544
G01 X16.2158 Y20.0904
G01 X16.1384 Y20.2197
G01 X16.0485 Y20.3409
G01 X15.9474 Y20.4524
G01 X15.8371 Y20.5524
G01 X15.7147 Y20.6434
G01 X15.5841 Y20.7215
G01 X15.4494 Y20.7851
G01 X15.3092 Y20.8354
G01 X15.1615 Y20.8725
G01 X15.0107 Y20.8947
G01 X14.8620 Y20.9020
G01 X14.7133 Y20.8947
G01 X14.5625 Y20.8725
G01 X14.4165 Y20.8359
G01 X14.2746 Y20.7851
G01 X14.1386 Y20.7208
G01 X14.0093 Y20.6434
G01 X13.8881 Y20.5535
G01 X13.7766 Y20.4524
G01 X13.6755 Y20.3409
G01 X13.5856 Y20.2197
G01 X13.5082 Y20.0904
G01 X13.4439 Y19.9544
G01 X13.3931 Y19.8125
G01 X13.3565 Y19.6665
G01 X13.3344 Y19.5175
G01 X13.3270 Y19.3670
G01 X13.3344 Y19.2165
G01 X13.3565 Y19.0675
G01 X13.3931 Y18.9215
G01 X13.4439 Y18.7796
G01 X13.5082 Y18.6436
G01 X13.5856 Y18.5143
G01 X13.6755 Y18.3931
G01 X13.7766 Y18.2816
G01 X13.8881 Y18.1805
G01 X14.0093 Y18.0906
G01 X14.1386 Y18.0132
G01 X14.2746 Y17.9489
G01 X14.4165 Y17.8981
G01 X14.5625 Y17.8615
G01 X14.7115 Y17.8394
G01 X14.8620 Y17.8320
G01 X15.0125 Y17.8394
G01 X15.1623 Y17.8617
G00 Z0.0010
G00 X15.1601 Y17.8714
G01 F60.00
G01 Z-0.0100
G01 F200.00
G01 X15.3046 Y17.9076
G01 X15.4347 Y17.9542
G01 X20.0205 Y13.3684
G01 X20.0404 Y13.3504
G01 X20.0622 Y13.3342
G01 X20.0853 Y13.3203
G01 X20.1103 Y13.3086
G01 X20.1351 Y13.2997
G01 X20.1614 Y13.2932
G01 X20.1880 Y13.2892
G01 X20.2150 Y13.2879
G01 X27.2470 Y13.2879
G01 X28.5461 Y11.9888
G01 X28.5461 Y5.6650
G01 X27.5200 Y5.6650
G01 X27.4349 Y5.6608
G01 X27.3493 Y5.6482
G01 X27.2660 Y5.6273
G01 X27.1851 Y5.5984
G01 X27.1070 Y5.5614
G01 X27.0340 Y5.5176
G01 X26.9659 Y5.4671
G01 X26.9004 Y5.4078
G01 X26.8437 Y5.3451
G01 X26.7924 Y5.2760
G01 X26.7483 Y5.2024
G01 X26.7121 Y5.1260
G01 X26.6823 Y5.0428
G01 X26.6618 Y4.9607
G01 X26.6492 Y4.8756
G01 X26.6450 Y4.7900
G01 X26.6491 Y4.7055
G01 X26.6621 Y4.6181
G01 X26.6827 Y4.5360
G01 X26.7112 Y4.4563
G01 X26.7483 Y4.3776
G01 X26.7932 Y4.3029
G01 X26.8437 Y4.2349
G01 X26.9013 Y4.1713
G01 X26.9649 Y4.1137
G01 X27.0329 Y4.0632
G01 X27.1076 Y4.0183
G01 X27.1851 Y3.9816
G01 X27.2648 Y3.9531
G01 X27.3499 Y3.9317
G01 X27.4344 Y3.9192
G01 X27.5200 Y3.9150
G01 X28.8200 Y3.9150
G01 X28.9061 Y3.9192
G01 X28.9907 Y3.9318
G01 X29.0740 Y3.9527
G01 X29.1549 Y3.9816
G01 X29.2314 Y4.0178
G01 X29.3071 Y4.0632
G01 X29.3751 Y4.1137
G01 X29.4391 Y4.1717
G01 X29.4963 Y4.2349
G01 X29.5476 Y4.3040
G01 X29.5917 Y4.3776
G01 X29.6284 Y4.4551
G01 X29.6573 Y4.5360
G01 X29.6782 Y4.6193
G01 X29.6908 Y4.7044
G01 X29.6950 Y4.7912
G01 X29.6908 Y4.8756
G01 X29.6784 Y4.9595
G01 X29.6573 Y5.0440
G01 X29.6284 Y5.1249
G01 X29.5922 Y5.2014
G01 X29.5468 Y5.2771
G01 X29.4963 Y5.3451
G01 X29.4396 Y5.4078
G01 X29.3742 Y5.4671
G01 X29.3060 Y5.5176
G01 X29.2324 Y5.5617
G01 X29.1549 Y5.5984
G01 X29.0963 Y5.6194
G01 X29.0963 Y12.1028
G01 X29.0950 Y12.1298
G01 X29.0910 Y12.1564
G01 X29.0841 Y12.1838
G01 X29.0754 Y12.2081
G01 X29.0639 Y12.2325
G01 X29.0493 Y12.2567
G01 X29.0338 Y12.2774
G01 X29.0162 Y12.2969
G01 X27.5551 Y13.7580
G01 X27.5356 Y13.7756
G01 X27.5138 Y13.7918
G01 X27.4907 Y13.8057
G01 X27.4663 Y13.8172
G01 X27.4409 Y13.8263
G01 X27.4146 Y13.8328
G01 X27.3880 Y13.8368
G01 X27.3610 Y13.8381
G01 X20.3290 Y13.8381
G01 X15.9079 Y18.2592
G01 X15.9408 Y18.2891
G01 X16.0412 Y18.4000
G01 X16.1300 Y18.5198
G01 X16.2072 Y18.6487
G01 X16.2709 Y18.7834
G01 X16.3214 Y18.9244
G01 X16.3577 Y19.0695
G01 X16.3797 Y19.2181
G01 X16.3870 Y19.3670
G01 X16.3797 Y19.5165
G01 X16.3577 Y19.6645
G01 X16.3214 Y19.8096
G01 X16.2709 Y19.9506
G01 X16.2070 Y20.0858
G01 X16.1300 Y20.2142
G01 X16.0408 Y20.3345
G01 X15.9403 Y20.4453
G01 X15.8304 Y20.5450
G01 X15.7092 Y20.6350
G01 X15.5798 Y20.7125
G01 X15.4456 Y20.7759
G01 X15.3058 Y20.8259
G01 X15.1595 Y20.8627
G01 X15.0103 Y20.8847
G01 X14.8620 Y20.8920
G01 X14.7137 Y20.8847
G01 X14.5645 Y20.8627
G01 X14.4194 Y20.8264
G01 X14.2784 Y20.7759
G01 X14.1432 Y20.7120
G01 X14.0148 Y20.6350
G01 X13.8945 Y20.5458
G01 X13.7837 Y20.4453
G01 X13.6832 Y20.3345
G01 X13.5940 Y20.2142
G01 X13.5170 Y20.0858
G01 X13.4531 Y19.9506
G01 X13.4026 Y19.8096
G01 X13.3663 Y19.6645
G01 X13.3443 Y19.5165
G01 X13.3370 Y19.3670
G01 X13.3443 Y19.2175
G01 X13.3663 Y19.0695
G01 X13.4026 Y18.9244
G01 X13.4531 Y18.7834
G01 X13.5170 Y18.6482
G01 X13.5940 Y18.5198
G01 X13.6832 Y18.3995
G01 X13.7837 Y18.2887
G01 X13.8945 Y18.1882
G01 X14.0148 Y18.0990
G01 X14.1432 Y18.0220
G01 X14.2784 Y17.9581
G01 X14.4194 Y17.9076
G01 X14.5645 Y17.8713
G01 X14.7125 Y17.8493
G01 X14.8620 Y17.8420
G01 X15.0115 Y17.8493
G01 X15.1601 Y17.8714
G00 Z0.0010
G00 X15.1579 Y17.8812
G01 F60.00
G01 Z-0.0100
G01 F200.00
G01 X15.3017 Y17.9172
G01 X15.4373 Y17.9657
G01 X20.0275 Y13.3755
G01 X20.0468 Y13.3581
G01 X20.0678 Y13.3425
G01 X20.0900 Y13.3292
G01 X20.1139 Y13.3179
G01 X20.1380 Y13.3093
G01 X20.1633 Y13.3030
G01 X20.1890 Y13.2992
G01 X20.2150 Y13.2979
G01 X27.2512 Y13.2979
G01 X28.5561 Y11.9930
G01 X28.5561 Y5.6550
G01 X27.5200 Y5.6550
G01 X27.4356 Y5.6509
G01 X27.3513 Y5.6384
G01 X27.2689 Y5.6177
G01 X27.1890 Y5.5892
G01 X27.1119 Y5.5527
G01 X27.0395 Y5.5093
G01 X26.9718 Y5.4591
G01 X26.9078 Y5.4011
G01 X26.8514 Y5.3388
G01 X26.8007 Y5.2705
G01 X26.7571 Y5.1977
G01 X26.7211 Y5.1217
G01 X26.6921 Y5.0404
G01 X26.6716 Y4.9587
G01 X26.6592 Y4.8747
G01 X26.6550 Y4.7900
G01 X26.6591 Y4.7059
G01 X26.6718 Y4.6205
G01 X26.6923 Y4.5389
G01 X26.7206 Y4.4597
G01 X26.7571 Y4.3823
G01 X26.8012 Y4.3088
G01 X26.8514 Y4.2412
G01 X26.9084 Y4.1784
G01 X26.9712 Y4.1214
G01 X27.0388 Y4.0712
G01 X27.1123 Y4.0271
G01 X27.1890 Y3.9908
G01 X27.2682 Y3.9625
G01 X27.3520 Y3.9415
G01 X27.4353 Y3.9292
G01 X27.5200 Y3.9250
G01 X28.8200 Y3.9250
G01 X28.9050 Y3.9292
G01 X28.9887 Y3.9416
G01 X29.0711 Y3.9623
G01 X29.1510 Y3.9908
G01 X29.2271 Y4.0268
G01 X29.3012 Y4.0712
G01 X29.3688 Y4.1214
G01 X29.4319 Y4.1786
G01 X29.4891 Y4.2418
G01 X29.5393 Y4.3095
G01 X29.5825 Y4.3816
G01 X29.6192 Y4.4590
G01 X29.6477 Y4.5389
G01 X29.6685 Y4.6220
G01 X29.6808 Y4.7053
G01 X29.6850 Y4.7893
G01 X29.6808 Y4.8747
G01 X29.6682 Y4.9595
G01 X29.6477 Y5.0411
G01 X29.6194 Y5.1203
G01 X29.5832 Y5.1971
G01 X29.5393 Y5.2705
G01 X29.4882 Y5.3393
G01 X29.4316 Y5.4016
G01 X29.3693 Y5.4582
G01 X29.3005 Y5.5093
G01 X29.2271 Y5.5532
G01 X29.1510 Y5.5892
G01 X29.0863 Y5.6123
G01 X29.0863 Y12.1028
G01 X29.0850 Y12.1288
G01 X29.0812 Y12.1545
G01 X29.0747 Y12.1805
G01 X29.0661 Y12.2043
G01 X29.0550 Y12.2278
G01 X29.0412 Y12.2507
G01 X29.0261 Y12.2710
G01 X29.0089 Y12.2900
G01 X27.5482 Y13.7507
G01 X27.5292 Y13.7679
G01 X27.5082 Y13.7835
G01 X27.4860 Y13.7968
G01 X27.4625 Y13.8079
G01 X27.4380 Y13.8167
G01 X27.4127 Y13.8230
G01 X27.3870 Y13.8268
G01 X27.3610 Y13.8281
G01 X20.3248 Y13.8281
G01 X15.8934 Y18.2596
G01 X15.9335 Y18.2960
G01 X16.0333 Y18.4061
G01 X16.1217 Y18.5254
G01 X16.1983 Y18.6532
G01 X16.2617 Y18.7872
G01 X16.3118 Y18.9273
G01 X16.3479 Y19.0714
G01 X16.3697 Y19.2189
G01 X16.3770 Y19.3670
G01 X16.3697 Y19.5155
G01 X16.3479 Y19.6626
G01 X16.3118 Y19.8067
G01 X16.2617 Y19.9468
G01 X16.1981 Y20.0811
G01 X16.1217 Y20.2086
G01 X16.0331 Y20.3281
G01 X15.9333 Y20.4383
G01 X15.8237 Y20.5376
G01 X15.7036 Y20.6267
G01 X15.5755 Y20.7034
G01 X15.4418 Y20.7667
G01 X15.3025 Y20.8165
G01 X15.1576 Y20.8529
G01 X15.0098 Y20.8748
G01 X14.8620 Y20.8820
G01 X14.7142 Y20.8748
G01 X14.5664 Y20.8529
G01 X14.4223 Y20.8168
G01 X14.2822 Y20.7667
G01 X14.1479 Y20.7031
G01 X14.0204 Y20.6267
G01 X13.9009 Y20.5381
G01 X13.7907 Y20.4383
G01 X13.6909 Y20.3281
G01 X13.6023 Y20.2086
G01 X13.5259 Y20.0811
G01 X13.4623 Y19.9468
G01 X13.4122 Y19.8067
G01 X13.3761 Y19.6626
G01 X13.3543 Y19.5155
G01 X13.3470 Y19.3670
G01 X13.3543 Y19.2185
G01 X13.3761 Y19.0714
G01 X13.4122 Y18.9273
G01 X13.4623 Y18.7872
G01 X13.5259 Y18.6529
G01 X13.6023 Y18.5254
G01 X13.6909 Y18.4059
G01 X13.7907 Y18.2957
G01 X13.9009 Y18.1959
G01 X14.0204 Y18.1073
G01 X14.1479 Y18.0309
G01 X14.2822 Y17.9673
G01 X14.4223 Y17.9172
G01 X14.5664 Y17.8811
G01 X14.7135 Y17.8593
G01 X14.8620 Y17.8520
G01 X15.0105 Y17.8593
G01 X15.1579 Y17.8812
G00 Z0.0010
G00 X19.8630 Y21.1094
G01 F60.00
G01 Z-0.0100
G01 F200.00
G01 X19.7358 Y20.8404
G01 X19.6351 Y20.5590
G01 X19.5625 Y20.2691
G01 X19.5187 Y19.9735
G01 X19.5040 Y19.6750
G01 X19.5187 Y19.3765
G01 X19.5625 Y19.0809
G01 X19.6351 Y18.7910
G01 X19.7358 Y18.5097
G01 X19.8635 Y18.2397
G01 X20.0172 Y17.9832
G01 X20.1953 Y17.7432
G01 X20.3959 Y17.5219
G01 X20.6172 Y17.3213
G01 X20.8573 Y17.1432
G01 X21.1136 Y16.9895
G01 X21.3836 Y16.8618
G01 X21.6650 Y16.7611
G01 X21.9549 Y16.6885
G01 X22.2505 Y16.6447
G01 X22.5490 Y16.6300
G01 X22.8475 Y16.6447
G01 X23.1431 Y16.6885
G01 X23.4330 Y16.7611
G01 X23.7143 Y16.8618
G01 X23.9843 Y16.9895
G01 X24.2408 Y17.1432
G01 X24.4808 Y17.3213
G01 X24.7021 Y17.5219
G01 X24.9027 Y17.7432
G01 X25.0808 Y17.9833
G01 X25.2345 Y18.2396
G01 X25.3622 Y18.5096
G01 X25.4629 Y18.7910
G01 X25.5355 Y19.0809
G01 X25.5793 Y19.3765
G01 X25.5940 Y19.6750
G01 X25.5793 Y19.9735
G01 X25.5355 Y20.2691
G01 X25.4629 Y20.5590
G01 X25.3622 Y20.8403
G01 X25.2345 Y21.1103
G01 X25.0808 Y21.3668
G01 X24.9027 Y21.6068
G01 X24.7021 Y21.8281
G01 X24.4808 Y22.0287
G01 X24.2407 Y22.2068
G01 X23.9844 Y22.3605
G01 X23.7144 Y22.4882
G01 X23.4330 Y22.5889
G01 X23.1431 Y22.6615
G01 X22.8475 Y22.7053
G01 X22.5490 Y22.7200
G01 X22.2505 Y22.7053
G01 X21.9549 Y22.6615
G01 X21.6650 Y22.5889
G01 X21.3837 Y22.4882
G01 X21.1137 Y22.3605
G01 X20.8572 Y22.2068
G01 X20.6172 Y22.0287
G01 X20.3959 Y21.8281
G01 X20.1953 Y21.6068
G01 X20.0172 Y21.3667
G01 X19.8630 Y21.1094
G00 Z0.0010
G00 X19.8720 Y21.1049
G01 F60.00
G01 Z-0.0100
G01 F200.00
G01 X19.7451 Y20.8365
G01 X19.6447 Y20.5561
G01 X19.5723 Y20.2671
G01 X19.5286 Y19.9725
G01 X19.5140 Y19.6750
G01 X19.5286 Y19.3775
G01 X19.5723 Y19.0829
G01 X19.6447 Y18.7939
G01 X19.7450 Y18.5136
G01 X19.8723 Y18.2444
G01 X20.0255 Y17.9888
G01 X20.2030 Y17.7495
G01 X20.4029 Y17.5289
G01 X20.6235 Y17.3290
G01 X20.8628 Y17.1515
G01 X21.1183 Y16.9984
G01 X21.3875 Y16.8711
G01 X21.6679 Y16.7707
G01 X21.9569 Y16.6983
G01 X22.2515 Y16.6546
G01 X22.5490 Y16.6400
G01 X22.8465 Y16.6546
G01 X23.1411 Y16.6983
G01 X23.4301 Y16.7707
G01 X23.7104 Y16.8710
G01 X23.9796 Y16.9983
G01 X24.2352 Y17.1515
G01 X24.4745 Y17.3290
G01 X24.6951 Y17.5289
G01 X24.8950 Y17.7495
G01 X25.0725 Y17.9888
G01 X25.2256 Y18.2443
G01 X25.3529 Y18.5135
G01 X25.4533 Y18.7939
G01 X25.5257 Y19.0829
G01 X25.5694 Y19.3775
G01 X25.5840 Y19.6750
G01 X25.5694 Y19.9725
G01 X25.5257 Y20.2671
G01 X25.4533 Y20.5561
G01 X25.3530 Y20.8364
G01 X25.2257 Y21.1056
G01 X25.0725 Y21.3612
G01 X24.8950 Y21.6005
G01 X24.6951 Y21.8211
G01 X24.4745 Y22.0210
G01 X24.2352 Y22.1985
G01 X23.9797 Y22.3516
G01 X23.7105 Y22.4789
G01 X23.4301 Y22.5793
G01 X23.1411 Y22.6517
G01 X22.8465 Y22.6954
G01 X22.5490 Y22.7100
G01 X22.2515 Y22.6954
G01 X21.9569 Y22.6517
G01 X21.6679 Y22.5793
G01 X21.3876 Y22.4790
G01 X21.1184 Y22.3517
G01 X20.8628 Y22.1985
G01 X20.6235 Y22.0210
G01 X20.4029 Y21.8211
G01 X20.2030 Y21.6005
G01 X20.0255 Y21.3612
G01 X19.8720 Y21.1049
G00 Z0.0010
G00 X19.8809 Y21.1004
G01 F60.00
G01 Z-0.0100
G01 F200.00
G01 X19.7543 Y20.8327
G01 X19.6543 Y20.5532
G01 X19.5821 Y20.2652
G01 X19.5386 Y19.9715
G01 X19.5240 Y19.6750
G01 X19.5386 Y19.3785
G01 X19.5821 Y19.0848
G01 X19.6543 Y18.7968
G01 X19.7543 Y18.5174
G01 X19.8811 Y18.2491
G01 X20.0338 Y17.9943
G01 X20.2107 Y17.7559
G01 X20.4100 Y17.5360
G01 X20.6299 Y17.3367
G01 X20.8684 Y17.1598
G01 X21.1230 Y17.0072
G01 X21.3913 Y16.8803
G01 X21.6708 Y16.7803
G01 X21.9588 Y16.7081
G01 X22.2525 Y16.6646
G01 X22.5490 Y16.6500
G01 X22.8455 Y16.6646
G01 X23.1392 Y16.7081
G01 X23.4272 Y16.7803
G01 X23.7066 Y16.8803
G01 X23.9749 Y17.0071
G01 X24.2297 Y17.1598
G01 X24.4681 Y17.3367
G01 X24.6880 Y17.5360
G01 X24.8873 Y17.7559
G01 X25.0642 Y17.9944
G01 X25.2168 Y18.2490
G01 X25.3437 Y18.5173
G01 X25.4437 Y18.7968
G01 X25.5159 Y19.0848
G01 X25.5594 Y19.3785
G01 X25.5740 Y19.6750
G01 X25.5594 Y19.9715
G01 X25.5159 Y20.2652
G01 X25.4437 Y20.5532
G01 X25.3437 Y20.8326
G01 X25.2169 Y21.1009
G01 X25.0642 Y21.3557
G01 X24.8873 Y21.5941
G01 X24.6880 Y21.8140
G01 X24.4681 Y22.0133
G01 X24.2296 Y22.1902
G01 X23.9750 Y22.3428
G01 X23.7067 Y22.4697
G01 X23.4272 Y22.5697
G01 X23.1392 Y22.6419
G01 X22.8455 Y22.6854
G01 X22.5490 Y22.7000
G01 X22.2525 Y22.6854
G01 X21.9588 Y22.6419
G01 X21.6708 Y22.5697
G01 X21.3914 Y22.4697
G01 X21.1231 Y22.3429
G01 X20.8683 Y22.1902
G01 X20.6299 Y22.0133
G01 X20.4100 Y21.8140
G01 X20.2107 Y21.5941
G01 X20.0338 Y21.3556
G01 X19.8809 Y21.1004
G00 Z0.0010
G00 X19.8898 Y21.0959
G01 F60.00
G01 Z-0.0100
G01 F200.00
G01 X19.7635 Y20.8288
G01 X19.6638 Y20.5502
G01 X19.5919 Y20.2632
G01 X19.5485 Y19.9705
G01 X19.5340 Y19.6750
G01 X19.5485 Y19.3795
G01 X19.5919 Y19.0868
G01 X19.6638 Y18.7998
G01 X19.7635 Y18.5212
G01 X19.8900 Y18.2538
G01 X20.0421 Y17.9999
G01 X20.2184 Y17.7623
G01 X20.4171 Y17.5431
G01 X20.6363 Y17.3444
G01 X20.8740 Y17.1681
G01 X21.1277 Y17.0160
G01 X21.3952 Y16.8895
G01 X21.6738 Y16.7898
G01 X21.9608 Y16.7179
G01 X22.2535 Y16.6745
G01 X22.5490 Y16.6600
G01 X22.8445 Y16.6745
G01 X23.1372 Y16.7179
G01 X23.4242 Y16.7898
G01 X23.7028 Y16.8895
G01 X23.9702 Y17.0160
G01 X24.2241 Y17.1681
G01 X24.4617 Y17.3444
G01 X24.6809 Y17.5431
G01 X24.8796 Y17.7623
G01 X25.0559 Y18.0000
G01 X25.2080 Y18.2537
G01 X25.3345 Y18.5212
G01 X25.4342 Y18.7998
G01 X25.5061 Y19.0868
G01 X25.5495 Y19.3795
G01 X25.5640 Y19.6750
G01 X25.5495 Y19.9705
G01 X25.5061 Y20.2632
G01 X25.4342 Y20.5502
G01 X25.3345 Y20.8288
G01 X25.2080 Y21.0962
G01 X25.0559 Y21.3501
G01 X24.8796 Y21.5877
G01 X24.6809 Y21.8069
G01 X24.4617 Y22.0056
G01 X24.2240 Y22.1819
G01 X23.9703 Y22.3340
G01 X23.7028 Y22.4605
G01 X23.4242 Y22.5602
G01 X23.1372 Y22.6321
G01 X22.8445 Y22.6755
G01 X22.5490 Y22.6900
G01 X22.2535 Y22.6755
G01 X21.9608 Y22.6321
G01 X21.6738 Y22.5602
G01 X21.3952 Y22.4605
G01 X21.1278 Y22.3340
G01 X20.8739 Y22.1819
G01 X20.6363 Y22.0056
G01 X20.4171 Y21.8069
G01 X20.2184 Y21.5877
G01 X20.0421 Y21.3500
G01 X19.8898 Y21.0959
G00 Z0.0010
G00 X19.8988 Y21.0914
G01 F60.00
G01 Z-0.0100
G01 F200.00
G01 X19.7727 Y20.8250
G01 X19.6734 Y20.5473
G01 X19.6017 Y20.2613
G01 X19.5585 Y19.9695
G01 X19.5440 Y19.6750
G01 X19.5585 Y19.3805
G01 X19.6017 Y19.0887
G01 X19.6734 Y18.8027
G01 X19.7727 Y18.5250
G01 X19.8988 Y18.2585
G01 X20.0504 Y18.0055
G01 X20.2261 Y17.7686
G01 X20.4241 Y17.5501
G01 X20.6426 Y17.3521
G01 X20.8795 Y17.1764
G01 X21.1325 Y17.0248
G01 X21.3990 Y16.8987
G01 X21.6767 Y16.7994
G01 X21.9627 Y16.7277
G01 X22.2545 Y16.6845
G01 X22.5490 Y16.6700
G01 X22.8435 Y16.6845
G01 X23.1353 Y16.7277
G01 X23.4213 Y16.7994
G01 X23.6990 Y16.8987
G01 X23.9655 Y17.0248
G01 X24.2185 Y17.1764
G01 X24.4554 Y17.3521
G01 X24.6739 Y17.5501
G01 X24.8719 Y17.7686
G01 X25.0476 Y18.0055
G01 X25.1992 Y18.2585
G01 X25.3253 Y18.5250
G01 X25.4246 Y18.8027
G01 X25.4963 Y19.0887
G01 X25.5395 Y19.3805
G01 X25.5540 Y19.6750
G01 X25.5395 Y19.9695
G01 X25.4963 Y20.2613
G01 X25.4246 Y20.5473
G01 X25.3253 Y20.8250
G01 X25.1992 Y21.0915
G01 X25.0476 Y21.3445
G01 X24.8719 Y21.5814
G01 X24.6739 Y21.7999
G01 X24.4554 Y21.9979
G01 X24.2185 Y22.1736
G01 X23.9655 Y22.3252
G01 X23.6990 Y22.4513
G01 X23.4213 Y22.5506
G01 X23.1353 Y22.6223
G01 X22.8435 Y22.6655
G01 X22.5490 Y22.6800
G01 X22.2545 Y22.6655
G01 X21.9627 Y22.6223
G01 X21.6767 Y22.5506
G01 X21.3990 Y22.4513
G01 X21.1325 Y22.3252
G01 X20.8795 Y22.1736
G01 X20.6426 Y21.9979
G01 X20.4241 Y21.7999
G01 X20.2261 Y21.5814
G01 X20.0504 Y21.3445
G01 X19.8988 Y21.0914
G00 Z0.0010
G00 X20.7738 Y26.0628
G01 F60.00
G01 Z-0.0100
G01 F200.00
G01 X20.8612 Y26.0585
G01 X20.9467 Y26.0626
G01 X21.0357 Y26.0757
G01 X21.1231 Y26.0977
G01 X21.2037 Y26.1266
G01 X21.2811 Y26.1632
G01 X21.3583 Y26.2092
G01 X21.4307 Y26.2631
G01 X21.4941 Y26.3206
G01 X21.5516 Y26.3840
G01 X21.6061 Y26.4574
G01 X21.6515 Y26.5336
G01 X21.6881 Y26.6110
G01 X21.7170 Y26.6916
G01 X21.7390 Y26.7790
G01 X21.7519 Y26.8661
G01 X21.7562 Y26.9535
G01 X21.7562 Y28.0811
G01 X22.4419 Y28.7669
G01 X38.4519 Y28.7669
G01 X39.8303 Y27.3885
G01 X39.8303 Y25.5310
G01 X39.7818 Y25.5135
G01 X39.7046 Y25.4770
G01 X39.6273 Y25.4307
G01 X39.5575 Y25.3789
G01 X39.4941 Y25.3215
G01 X39.4330 Y25.2542
G01 X39.3811 Y25.1842
G01 X39.3372 Y25.1109
G01 X39.2985 Y25.0296
G01 X39.2683 Y24.9448
G01 X39.2476 Y24.8616
G01 X39.2348 Y24.7754
G01 X39.2304 Y24.6871
G01 X39.2305 Y23.3849
G01 X39.2347 Y23.2997
G01 X39.2476 Y23.2126
G01 X39.2690 Y23.1272
G01 X39.2994 Y23.0426
G01 X39.3360 Y22.9653
G01 X39.3801 Y22.8917
G01 X39.4350 Y22.8176
G01 X39.4925 Y22.7542
G01 X39.5575 Y22.6953
G01 X39.6283 Y22.6428
G01 X39.7016 Y22.5989
G01 X39.7850 Y22.5594
G01 X39.8655 Y22.5307
G01 X39.9509 Y22.5093
G01 X40.0380 Y22.4964
G01 X40.1232 Y22.4922
G01 X40.2153 Y22.4967
G01 X40.2999 Y22.5093
G01 X40.3853 Y22.5307
G01 X40.4679 Y22.5602
G01 X40.5453 Y22.5968
G01 X40.6244 Y22.6442
G01 X40.6933 Y22.6953
G01 X40.7583 Y22.7542
G01 X40.8172 Y22.8192
G01 X40.8683 Y22.8881
G01 X40.9157 Y22.9672
G01 X40.9523 Y23.0446
G01 X40.9818 Y23.1272
G01 X41.0032 Y23.2126
G01 X41.0158 Y23.2972
G01 X41.0204 Y23.3871
G01 X41.0204 Y24.6882
G01 X41.0161 Y24.7745
G01 X41.0036 Y24.8595
G01 X40.9822 Y24.9459
G01 X40.9523 Y25.0296
G01 X40.9136 Y25.1109
G01 X40.8697 Y25.1842
G01 X40.8186 Y25.2531
G01 X40.7590 Y25.3192
G01 X40.6933 Y25.3789
G01 X40.6215 Y25.4320
G01 X40.5462 Y25.4770
G01 X40.4690 Y25.5135
G01 X40.4205 Y25.5310
G01 X40.4205 Y27.5108
G01 X40.4191 Y27.5398
G01 X40.4149 Y27.5683
G01 X40.4078 Y27.5965
G01 X40.3985 Y27.6227
G01 X40.3857 Y27.6498
G01 X40.3709 Y27.6746
G01 X40.3535 Y27.6981
G01 X40.3341 Y27.7195
G01 X38.7821 Y29.2714
G01 X38.7615 Y29.2900
G01 X38.7400 Y29.3061
G01 X38.7113 Y29.3232
G01 X38.6872 Y29.3346
G01 X38.6599 Y29.3444
G01 X38.6317 Y29.3514
G01 X38.6053 Y29.3554
G01 X38.5742 Y29.3571
G01 X22.3186 Y29.3571
G01 X22.2907 Y29.3557
G01 X22.2622 Y29.3514
G01 X22.2339 Y29.3444
G01 X22.2088 Y29.3354
G01 X22.1786 Y29.3212
G01 X22.1559 Y29.3075
G01 X22.1324 Y29.2900
G01 X22.1110 Y29.2707
G01 X21.5993 Y28.7590
G01 X21.5530 Y28.8214
G01 X21.4956 Y28.8848
G01 X21.4291 Y28.9453
G01 X21.3566 Y28.9988
G01 X21.2830 Y29.0429
G01 X21.2037 Y29.0804
G01 X21.1211 Y29.1099
G01 X21.0380 Y29.1308
G01 X20.9486 Y29.1442
G01 X20.8590 Y29.1484
G01 X20.7738 Y29.1442
G01 X20.6877 Y29.1315
G01 X20.5993 Y29.1093
G01 X20.5187 Y29.0804
G01 X20.4413 Y29.0438
G01 X20.3641 Y28.9978
G01 X20.2917 Y28.9439
G01 X20.2283 Y28.8864
G01 X20.1708 Y28.8230
G01 X20.1169 Y28.7506
G01 X20.0709 Y28.6734
G01 X20.0343 Y28.5960
G01 X20.0051 Y28.5145
G01 X19.9830 Y28.4259
G01 X19.9705 Y28.3409
G01 X19.9662 Y28.2546
G01 X19.9662 Y26.9524
G01 X19.9705 Y26.8661
G01 X19.9834 Y26.7790
G01 X20.0048 Y26.6936
G01 X20.0343 Y26.6110
G01 X20.0718 Y26.5317
G01 X20.1169 Y26.4564
G01 X20.1694 Y26.3856
G01 X20.2268 Y26.3222
G01 X20.2952 Y26.2603
G01 X20.3641 Y26.2092
G01 X20.4413 Y26.1632
G01 X20.5187 Y26.1266
G01 X20.6013 Y26.0971
G01 X20.6867 Y26.0757
G01 X20.7738 Y26.0628
G00 Z0.0010
G00 X20.7747 Y26.0727
G01 F60.00
G01 Z-0.0100
G01 F200.00
G01 X20.8612 Y26.0685
G01 X20.9462 Y26.0726
G01 X21.0338 Y26.0855
G01 X21.1197 Y26.1071
G01 X21.1999 Y26.1359
G01 X21.2769 Y26.1722
G01 X21.3528 Y26.2176
G01 X21.4239 Y26.2705
G01 X21.4870 Y26.3277
G01 X21.5442 Y26.3908
G01 X21.5976 Y26.4627
G01 X21.6425 Y26.5378
G01 X21.6788 Y26.6148
G01 X21.7076 Y26.6950
G01 X21.7292 Y26.7809
G01 X21.7420 Y26.8670
G01 X21.7462 Y26.9535
G01 X21.7462 Y28.0853
G01 X22.4378 Y28.7769
G01 X38.4561 Y28.7769
G01 X39.8403 Y27.3927
G01 X39.8403 Y25.5239
G01 X39.7867 Y25.5047
G01 X39.7091 Y25.4680
G01 X39.6331 Y25.4225
G01 X39.5639 Y25.3712
G01 X39.5009 Y25.3141
G01 X39.4408 Y25.2480
G01 X39.3895 Y25.1787
G01 X39.3457 Y25.1058
G01 X39.3078 Y25.0258
G01 X39.2780 Y24.9423
G01 X39.2574 Y24.8597
G01 X39.2447 Y24.7743
G01 X39.2404 Y24.6871
G01 X39.2404 Y23.3854
G01 X39.2446 Y23.3006
G01 X39.2574 Y23.2145
G01 X39.2785 Y23.1301
G01 X39.3085 Y23.0469
G01 X39.3449 Y22.9700
G01 X39.3886 Y22.8969
G01 X39.4424 Y22.8244
G01 X39.4996 Y22.7613
G01 X39.5639 Y22.7030
G01 X39.6338 Y22.6512
G01 X39.7067 Y22.6074
G01 X39.7883 Y22.5688
G01 X39.8684 Y22.5402
G01 X39.9528 Y22.5191
G01 X40.0389 Y22.5063
G01 X40.1237 Y22.5021
G01 X40.2139 Y22.5066
G01 X40.2980 Y22.5191
G01 X40.3824 Y22.5402
G01 X40.4641 Y22.5695
G01 X40.5411 Y22.6058
G01 X40.6185 Y22.6522
G01 X40.6869 Y22.7030
G01 X40.7512 Y22.7613
G01 X40.8095 Y22.8256
G01 X40.8603 Y22.8940
G01 X40.9067 Y22.9714
G01 X40.9430 Y23.0484
G01 X40.9723 Y23.1301
G01 X40.9934 Y23.2145
G01 X41.0059 Y23.2986
G01 X41.0104 Y23.3871
G01 X41.0104 Y24.6880
G01 X41.0062 Y24.7736
G01 X40.9937 Y24.8581
G01 X40.9725 Y24.9432
G01 X40.9430 Y25.0258
G01 X40.9051 Y25.1058
G01 X40.8613 Y25.1787
G01 X40.8106 Y25.2472
G01 X40.7518 Y25.3123
G01 X40.6869 Y25.3712
G01 X40.6162 Y25.4235
G01 X40.5417 Y25.4680
G01 X40.4641 Y25.5047
G01 X40.4105 Y25.5239
G01 X40.4105 Y27.5108
G01 X40.4091 Y27.5388
G01 X40.4051 Y27.5663
G01 X40.3982 Y27.5936
G01 X40.3891 Y27.6191
G01 X40.3769 Y27.6451
G01 X40.3625 Y27.6691
G01 X40.3457 Y27.6917
G01 X40.3270 Y27.7124
G01 X38.7752 Y29.2642
G01 X38.7551 Y29.2823
G01 X38.7340 Y29.2981
G01 X38.7071 Y29.3142
G01 X38.6833 Y29.3254
G01 X38.6570 Y29.3348
G01 X38.6298 Y29.3416
G01 X38.6038 Y29.3455
G01 X38.5742 Y29.3471
G01 X22.3188 Y29.3471
G01 X22.2917 Y29.3457
G01 X22.2641 Y29.3416
G01 X22.2369 Y29.3348
G01 X22.2122 Y29.3260
G01 X22.1838 Y29.3126
G01 X22.1614 Y29.2991
G01 X22.1387 Y29.2823
G01 X22.1181 Y29.2636
G01 X21.5981 Y28.7436
G01 X21.5442 Y28.8162
G01 X21.4870 Y28.8793
G01 X21.4227 Y28.9376
G01 X21.3514 Y28.9903
G01 X21.2783 Y29.0340
G01 X21.1999 Y29.0711
G01 X21.1182 Y29.1004
G01 X21.0355 Y29.1211
G01 X20.9477 Y29.1343
G01 X20.8595 Y29.1385
G01 X20.7747 Y29.1343
G01 X20.6894 Y29.1217
G01 X20.6027 Y29.0999
G01 X20.5225 Y29.0711
G01 X20.4455 Y29.0348
G01 X20.3696 Y28.9894
G01 X20.2985 Y28.9365
G01 X20.2354 Y28.8793
G01 X20.1782 Y28.8162
G01 X20.1253 Y28.7451
G01 X20.0799 Y28.6692
G01 X20.0436 Y28.5922
G01 X20.0146 Y28.5113
G01 X19.9929 Y28.4245
G01 X19.9804 Y28.3400
G01 X19.9762 Y28.2544
G01 X19.9762 Y26.9526
G01 X19.9804 Y26.8670
G01 X19.9932 Y26.7809
G01 X20.0143 Y26.6965
G01 X20.0436 Y26.6148
G01 X20.0807 Y26.5364
G01 X20.1253 Y26.4619
G01 X20.1771 Y26.3920
G01 X20.2342 Y26.3290
G01 X20.3011 Y26.2683
G01 X20.3696 Y26.2176
G01 X20.4455 Y26.1722
G01 X20.5225 Y26.1359
G01 X20.6042 Y26.1066
G01 X20.6886 Y26.0855
G01 X20.7747 Y26.0727
G00 Z0.0010
G00 X20.7756 Y26.0827
G01 F60.00
G01 Z-0.0100
G01 F200.00
G01 X20.8612 Y26.0785
G01 X20.9457 Y26.0826
G01 X21.0319 Y26.0953
G01 X21.1164 Y26.1166
G01 X21.1961 Y26.1451
G01 X21.2726 Y26.1813
G01 X21.3472 Y26.2259
G01 X21.4172 Y26.2779
G01 X21.4799 Y26.3348
G01 X21.5368 Y26.3975
G01 X21.5891 Y26.4680
G01 X21.6334 Y26.5421
G01 X21.6696 Y26.6186
G01 X21.6981 Y26.6983
G01 X21.7194 Y26.7828
G01 X21.7320 Y26.8679
G01 X21.7362 Y26.9535
G01 X21.7362 Y28.0894
G01 X22.4336 Y28.7869
G01 X38.4602 Y28.7869
G01 X39.8503 Y27.3968
G01 X39.8503 Y25.5169
G01 X39.7905 Y25.4955
G01 X39.7140 Y25.4593
G01 X39.6388 Y25.4143
G01 X39.5703 Y25.3634
G01 X39.5076 Y25.3067
G01 X39.4487 Y25.2418
G01 X39.3978 Y25.1731
G01 X39.3543 Y25.1006
G01 X39.3170 Y25.0220
G01 X39.2877 Y24.9399
G01 X39.2672 Y24.8578
G01 X39.2546 Y24.7732
G01 X39.2504 Y24.6871
G01 X39.2504 Y23.3865
G01 X39.2546 Y23.3015
G01 X39.2672 Y23.2164
G01 X39.2881 Y23.1331
G01 X39.3175 Y23.0511
G01 X39.3537 Y22.9747
G01 X39.3972 Y22.9020
G01 X39.4498 Y22.8311
G01 X39.5067 Y22.7684
G01 X39.5703 Y22.7108
G01 X39.6394 Y22.6595
G01 X39.7119 Y22.6160
G01 X39.7917 Y22.5783
G01 X39.8714 Y22.5498
G01 X39.9547 Y22.5289
G01 X40.0398 Y22.5163
G01 X40.1242 Y22.5121
G01 X40.2124 Y22.5165
G01 X40.2961 Y22.5289
G01 X40.3794 Y22.5498
G01 X40.4603 Y22.5787
G01 X40.5368 Y22.6149
G01 X40.6125 Y22.6603
G01 X40.6805 Y22.7108
G01 X40.7441 Y22.7684
G01 X40.8017 Y22.8320
G01 X40.8522 Y22.9000
G01 X40.8976 Y22.9757
G01 X40.9338 Y23.0522
G01 X40.9627 Y23.1331
G01 X40.9836 Y23.2164
G01 X40.9960 Y23.3001
G01 X41.0004 Y23.3871
G01 X41.0004 Y24.6877
G01 X40.9962 Y24.7727
G01 X40.9838 Y24.8566
G01 X40.9629 Y24.9405
G01 X40.9338 Y25.0220
G01 X40.8965 Y25.1006
G01 X40.8530 Y25.1731
G01 X40.8025 Y25.2412
G01 X40.7445 Y25.3054
G01 X40.6805 Y25.3634
G01 X40.6109 Y25.4150
G01 X40.5368 Y25.4593
G01 X40.4603 Y25.4955
G01 X40.4005 Y25.5169
G01 X40.4005 Y27.5108
G01 X40.3992 Y27.5378
G01 X40.3952 Y27.5644
G01 X40.3887 Y27.5907
G01 X40.3798 Y27.6155
G01 X40.3681 Y27.6404
G01 X40.3542 Y27.6635
G01 X40.3380 Y27.6854
G01 X40.3199 Y27.7053
G01 X38.7683 Y29.2569
G01 X38.7488 Y29.2746
G01 X38.7280 Y29.2900
G01 X38.7028 Y29.3052
G01 X38.6795 Y29.3162
G01 X38.6541 Y29.3252
G01 X38.6278 Y29.3318
G01 X38.6024 Y29.3356
G01 X38.5742 Y29.3371
G01 X22.3191 Y29.3371
G01 X22.2927 Y29.3358
G01 X22.2660 Y29.3318
G01 X22.2398 Y29.3252
G01 X22.2155 Y29.3166
G01 X22.1889 Y29.3040
G01 X22.1669 Y29.2908
G01 X22.1451 Y29.2746
G01 X22.1251 Y29.2565
G01 X21.5961 Y28.7275
G01 X21.5880 Y28.7406
G01 X21.5368 Y28.8095
G01 X21.4799 Y28.8722
G01 X21.4163 Y28.9298
G01 X21.3463 Y28.9817
G01 X21.2736 Y29.0252
G01 X21.1961 Y29.0619
G01 X21.1152 Y29.0908
G01 X21.0331 Y29.1114
G01 X20.9468 Y29.1243
G01 X20.8600 Y29.1285
G01 X20.7756 Y29.1243
G01 X20.6911 Y29.1118
G01 X20.6060 Y29.0904
G01 X20.5263 Y29.0619
G01 X20.4498 Y29.0257
G01 X20.3752 Y28.9811
G01 X20.3052 Y28.9291
G01 X20.2425 Y28.8722
G01 X20.1856 Y28.8095
G01 X20.1336 Y28.7395
G01 X20.0890 Y28.6649
G01 X20.0528 Y28.5884
G01 X20.0241 Y28.5081
G01 X20.0028 Y28.4230
G01 X19.9904 Y28.3391
G01 X19.9862 Y28.2541
G01 X19.9862 Y26.9529
G01 X19.9904 Y26.8679
G01 X20.0030 Y26.7828
G01 X20.0239 Y26.6995
G01 X20.0528 Y26.6186
G01 X20.0895 Y26.5411
G01 X20.1336 Y26.4675
G01 X20.1849 Y26.3984
G01 X20.2416 Y26.3357
G01 X20.3071 Y26.2764
G01 X20.3752 Y26.2259
G01 X20.4498 Y26.1813
G01 X20.5263 Y26.1451
G01 X20.6072 Y26.1162
G01 X20.6905 Y26.0953
G01 X20.7756 Y26.0827
G00 Z0.0010
G00 X20.7765 Y26.0927
G01 F60.00
G01 Z-0.0100
G01 F200.00
G01 X20.8612 Y26.0885
G01 X20.9453 Y26.0926
G01 X21.0299 Y26.1051
G01 X21.1130 Y26.1260
G01 X21.1922 Y26.1543
G01 X21.2683 Y26.1903
G01 X21.3417 Y26.2342
G01 X21.4105 Y26.2853
G01 X21.4728 Y26.3419
G01 X21.5294 Y26.4042
G01 X21.5808 Y26.4736
G01 X21.6241 Y26.5458
G01 X21.6601 Y26.6218
G01 X21.6887 Y26.7017
G01 X21.7096 Y26.7848
G01 X21.7220 Y26.8688
G01 X21.7262 Y26.9535
G01 X21.7262 Y28.0936
G01 X22.4295 Y28.7969
G01 X38.4644 Y28.7969
G01 X39.8603 Y27.4010
G01 X39.8603 Y25.5099
G01 X39.7944 Y25.4863
G01 X39.7183 Y25.4503
G01 X39.6449 Y25.4064
G01 X39.5761 Y25.3553
G01 X39.5138 Y25.2987
G01 X39.4568 Y25.2359
G01 X39.4058 Y25.1670
G01 X39.3625 Y25.0948
G01 X39.3262 Y25.0181
G01 X39.2975 Y24.9375
G01 X39.2770 Y24.8558
G01 X39.2646 Y24.7721
G01 X39.2604 Y24.6871
G01 X39.2604 Y23.3867
G01 X39.2646 Y23.3024
G01 X39.2770 Y23.2184
G01 X39.2977 Y23.1360
G01 X39.3265 Y23.0554
G01 X39.3625 Y22.9794
G01 X39.4058 Y22.9072
G01 X39.4572 Y22.8378
G01 X39.5138 Y22.7755
G01 X39.5766 Y22.7185
G01 X39.6449 Y22.6678
G01 X39.7170 Y22.6246
G01 X39.7951 Y22.5877
G01 X39.8743 Y22.5594
G01 X39.9567 Y22.5387
G01 X40.0407 Y22.5263
G01 X40.1247 Y22.5221
G01 X40.2109 Y22.5264
G01 X40.2941 Y22.5387
G01 X40.3765 Y22.5594
G01 X40.4564 Y22.5879
G01 X40.5325 Y22.6239
G01 X40.6066 Y22.6683
G01 X40.6742 Y22.7185
G01 X40.7370 Y22.7755
G01 X40.7940 Y22.8383
G01 X40.8442 Y22.9059
G01 X40.8886 Y22.9800
G01 X40.9246 Y23.0561
G01 X40.9531 Y23.1360
G01 X40.9738 Y23.2184
G01 X40.9861 Y23.3016
G01 X40.9904 Y23.3871
G01 X40.9904 Y24.6875
G01 X40.9862 Y24.7718
G01 X40.9739 Y24.8551
G01 X40.9533 Y24.9379
G01 X40.9246 Y25.0181
G01 X40.8879 Y25.0955
G01 X40.8447 Y25.1676
G01 X40.7945 Y25.2353
G01 X40.7370 Y25.2987
G01 X40.6742 Y25.3557
G01 X40.6053 Y25.4067
G01 X40.5325 Y25.4503
G01 X40.4564 Y25.4863
G01 X40.3905 Y25.5099
G01 X40.3905 Y27.5108
G01 X40.3892 Y27.5368
G01 X40.3854 Y27.5625
G01 X40.3791 Y27.5878
G01 X40.3705 Y27.6119
G01 X40.3592 Y27.6357
G01 X40.3459 Y27.6580
G01 X40.3303 Y27.6790
G01 X40.3129 Y27.6982
G01 X38.7614 Y29.2497
G01 X38.7424 Y29.2669
G01 X38.7221 Y29.2820
G01 X38.6985 Y29.2961
G01 X38.6757 Y29.3069
G01 X38.6512 Y29.3157
G01 X38.6259 Y29.3220
G01 X38.6009 Y29.3257
G01 X38.5742 Y29.3271
G01 X22.3193 Y29.3271
G01 X22.2937 Y29.3258
G01 X22.2680 Y29.3220
G01 X22.2427 Y29.3157
G01 X22.2189 Y29.3072
G01 X22.1941 Y29.2954
G01 X22.1724 Y29.2825
G01 X22.1512 Y29.2667
G01 X22.1322 Y29.2494
G01 X21.5941 Y28.7113
G01 X21.5802 Y28.7343
G01 X21.5296 Y28.8025
G01 X21.4728 Y28.8651
G01 X21.4102 Y28.9219
G01 X21.3411 Y28.9731
G01 X21.2689 Y29.0164
G01 X21.1926 Y29.0525
G01 X21.1116 Y29.0814
G01 X21.0299 Y29.1019
G01 X20.9459 Y29.1143
G01 X20.8605 Y29.1185
G01 X20.7765 Y29.1143
G01 X20.6928 Y29.1019
G01 X20.6094 Y29.0810
G01 X20.5302 Y29.0527
G01 X20.4541 Y29.0167
G01 X20.3807 Y28.9728
G01 X20.3119 Y28.9217
G01 X20.2496 Y28.8651
G01 X20.1930 Y28.8028
G01 X20.1419 Y28.7340
G01 X20.0980 Y28.6606
G01 X20.0620 Y28.5845
G01 X20.0336 Y28.5050
G01 X20.0127 Y28.4215
G01 X20.0004 Y28.3382
G01 X19.9962 Y28.2539
G01 X19.9962 Y26.9531
G01 X20.0004 Y26.8688
G01 X20.0128 Y26.7848
G01 X20.0335 Y26.7024
G01 X20.0620 Y26.6225
G01 X20.0983 Y26.5458
G01 X20.1419 Y26.4730
G01 X20.1926 Y26.4047
G01 X20.2490 Y26.3424
G01 X20.3130 Y26.2844
G01 X20.3807 Y26.2342
G01 X20.4541 Y26.1903
G01 X20.5302 Y26.1543
G01 X20.6101 Y26.1258
G01 X20.6925 Y26.1051
G01 X20.7765 Y26.0927
G00 Z0.0010
G00 X20.7774 Y26.1026
G01 F60.00
G01 Z-0.0100
G01 F200.00
G01 X20.8612 Y26.0985
G01 X20.9448 Y26.1026
G01 X21.0280 Y26.1149
G01 X21.1096 Y26.1354
G01 X21.1884 Y26.1636
G01 X21.2640 Y26.1993
G01 X21.3362 Y26.2426
G01 X21.4038 Y26.2927
G01 X21.4658 Y26.3489
G01 X21.5220 Y26.4109
G01 X21.5722 Y26.4787
G01 X21.6152 Y26.5505
G01 X21.6510 Y26.6261
G01 X21.6793 Y26.7051
G01 X21.6998 Y26.7867
G01 X21.7121 Y26.8697
G01 X21.7162 Y26.9535
G01 X21.7162 Y28.0977
G01 X22.4254 Y28.8069
G01 X38.4685 Y28.8069
G01 X39.8703 Y27.4051
G01 X39.8703 Y25.5028
G01 X39.7982 Y25.4770
G01 X39.7226 Y25.4413
G01 X39.6504 Y25.3980
G01 X39.5828 Y25.3479
G01 X39.5208 Y25.2917
G01 X39.4645 Y25.2295
G01 X39.4144 Y25.1619
G01 X39.3714 Y25.0901
G01 X39.3355 Y25.0143
G01 X39.3072 Y24.9351
G01 X39.2868 Y24.8539
G01 X39.2745 Y24.7710
G01 X39.2704 Y24.6871
G01 X39.2704 Y23.3870
G01 X39.2745 Y23.3033
G01 X39.2868 Y23.2203
G01 X39.3072 Y23.1389
G01 X39.3355 Y23.0598
G01 X39.3714 Y22.9841
G01 X39.4144 Y22.9123
G01 X39.4646 Y22.8445
G01 X39.5208 Y22.7825
G01 X39.5830 Y22.7262
G01 X39.6504 Y22.6762
G01 X39.7221 Y22.6332
G01 X39.7984 Y22.5971
G01 X39.8772 Y22.5689
G01 X39.9586 Y22.5485
G01 X40.0416 Y22.5362
G01 X40.1252 Y22.5321
G01 X40.2094 Y22.5362
G01 X40.2922 Y22.5485
G01 X40.3736 Y22.5689
G01 X40.4526 Y22.5972
G01 X40.5282 Y22.6329
G01 X40.6006 Y22.6763
G01 X40.6678 Y22.7262
G01 X40.7300 Y22.7825
G01 X40.7863 Y22.8447
G01 X40.8362 Y22.9119
G01 X40.8796 Y22.9843
G01 X40.9153 Y23.0599
G01 X40.9436 Y23.1389
G01 X40.9640 Y23.2203
G01 X40.9763 Y23.3031
G01 X40.9804 Y23.3871
G01 X40.9804 Y24.6872
G01 X40.9763 Y24.7709
G01 X40.9640 Y24.8537
G01 X40.9436 Y24.9352
G01 X40.9153 Y25.0143
G01 X40.8793 Y25.0904
G01 X40.8363 Y25.1621
G01 X40.7865 Y25.2293
G01 X40.7300 Y25.2917
G01 X40.6678 Y25.3480
G01 X40.6002 Y25.3981
G01 X40.5282 Y25.4413
G01 X40.4526 Y25.4770
G01 X40.3805 Y25.5028
G01 X40.3805 Y27.5108
G01 X40.3793 Y27.5358
G01 X40.3756 Y27.5605
G01 X40.3695 Y27.5848
G01 X40.3611 Y27.6083
G01 X40.3504 Y27.6310
G01 X40.3375 Y27.6525
G01 X40.3226 Y27.6726
G01 X40.3058 Y27.6912
G01 X38.7545 Y29.2425
G01 X38.7361 Y29.2592
G01 X38.7161 Y29.2740
G01 X38.6942 Y29.2871
G01 X38.6718 Y29.2977
G01 X38.6483 Y29.3061
G01 X38.6240 Y29.3122
G01 X38.5994 Y29.3158
G01 X38.5742 Y29.3171
G01 X22.3196 Y29.3171
G01 X22.2947 Y29.3159
G01 X22.2699 Y29.3122
G01 X22.2456 Y29.3061
G01 X22.2223 Y29.2978
G01 X22.1992 Y29.2869
G01 X22.1780 Y29.2741
G01 X22.1577 Y29.2591
G01 X22.1393 Y29.2424
G01 X21.5921 Y28.6952
G01 X21.5720 Y28.7286
G01 X21.5220 Y28.7960
G01 X21.4658 Y28.8581
G01 X21.4037 Y28.9143
G01 X21.3360 Y28.9645
G01 X21.2642 Y29.0075
G01 X21.1885 Y29.0434
G01 X21.1092 Y29.0717
G01 X21.0280 Y29.0921
G01 X20.9450 Y29.1044
G01 X20.8610 Y29.1085
G01 X20.7774 Y29.1044
G01 X20.6945 Y29.0921
G01 X20.6128 Y29.0716
G01 X20.5340 Y29.0434
G01 X20.4584 Y29.0077
G01 X20.3862 Y28.9644
G01 X20.3186 Y28.9143
G01 X20.2566 Y28.8581
G01 X20.2004 Y28.7961
G01 X20.1503 Y28.7285
G01 X20.1070 Y28.6563
G01 X20.0713 Y28.5807
G01 X20.0431 Y28.5018
G01 X20.0226 Y28.4201
G01 X20.0103 Y28.3373
G01 X20.0062 Y28.2536
G01 X20.0062 Y26.9534
G01 X20.0103 Y26.8697
G01 X20.0226 Y26.7867
G01 X20.0430 Y26.7053
G01 X20.0713 Y26.6263
G01 X20.1072 Y26.5505
G01 X20.1503 Y26.4785
G01 X20.2003 Y26.4111
G01 X20.2565 Y26.3491
G01 X20.3190 Y26.2924
G01 X20.3862 Y26.2426
G01 X20.4584 Y26.1993
G01 X20.5340 Y26.1636
G01 X20.6130 Y26.1353
G01 X20.6944 Y26.1149
G01 X20.7774 Y26.1026
G00 Z0.0010
G00 X18.0673 Y29.6286
G01 F60.00
G01 Z-0.0100
G01 F200.00
G01 X18.0661 Y29.6035
G01 X18.0661 Y29.0692
G01 X17.9940 Y29.0434
G01 X17.9184 Y29.0077
G01 X17.8462 Y28.9644
G01 X17.7786 Y28.9143
G01 X17.7166 Y28.8581
G01 X17.6604 Y28.7961
G01 X17.6103 Y28.7285
G01 X17.5670 Y28.6563
G01 X17.5313 Y28.5807
G01 X17.5031 Y28.5019
G01 X17.4827 Y28.4204
G01 X17.4703 Y28.3373
G01 X17.4662 Y28.2535
G01 X17.4662 Y26.9535
G01 X17.4703 Y26.8698
G01 X17.4826 Y26.7867
G01 X17.5030 Y26.7053
G01 X17.5313 Y26.6263
G01 X17.5670 Y26.5507
G01 X17.6103 Y26.4785
G01 X17.6601 Y26.4113
G01 X17.7168 Y26.3488
G01 X17.7788 Y26.2926
G01 X17.8462 Y26.2426
G01 X17.9182 Y26.1995
G01 X17.9940 Y26.1636
G01 X18.0730 Y26.1353
G01 X18.1544 Y26.1149
G01 X18.2374 Y26.1026
G01 X18.3212 Y26.0985
G01 X18.4050 Y26.1026
G01 X18.4880 Y26.1149
G01 X18.5694 Y26.1353
G01 X18.6484 Y26.1636
G01 X18.7242 Y26.1995
G01 X18.7962 Y26.2426
G01 X18.8636 Y26.2926
G01 X18.9256 Y26.3488
G01 X18.9823 Y26.4113
G01 X19.0321 Y26.4785
G01 X19.0754 Y26.5507
G01 X19.1111 Y26.6263
G01 X19.1394 Y26.7053
G01 X19.1598 Y26.7867
G01 X19.1721 Y26.8697
G01 X19.1762 Y26.9535
G01 X19.1762 Y28.2535
G01 X19.1721 Y28.3373
G01 X19.1598 Y28.4203
G01 X19.1393 Y28.5019
G01 X19.1111 Y28.5807
G01 X19.0754 Y28.6563
G01 X19.0321 Y28.7285
G01 X18.9820 Y28.7961
G01 X18.9258 Y28.8581
G01 X18.8638 Y28.9143
G01 X18.7962 Y28.9644
G01 X18.7240 Y29.0077
G01 X18.6484 Y29.0434
G01 X18.5763 Y29.0692
G01 X18.5763 Y29.4978
G01 X18.6394 Y29.5609
G01 X38.7808 Y29.5609
G01 X42.4103 Y25.9314
G01 X42.4103 Y25.5028
G01 X42.3382 Y25.4770
G01 X42.2626 Y25.4413
G01 X42.1904 Y25.3980
G01 X42.1228 Y25.3479
G01 X42.0608 Y25.2917
G01 X42.0046 Y25.2297
G01 X41.9544 Y25.1619
G01 X41.9114 Y25.0901
G01 X41.8756 Y25.0145
G01 X41.8472 Y24.9353
G01 X41.8268 Y24.8537
G01 X41.8145 Y24.7709
G01 X41.8104 Y24.6871
G01 X41.8104 Y23.3871
G01 X41.8145 Y23.3034
G01 X41.8269 Y23.2201
G01 X41.8472 Y23.1389
G01 X41.8754 Y23.0601
G01 X41.9114 Y22.9841
G01 X41.9546 Y22.9119
G01 X42.0045 Y22.8447
G01 X42.0607 Y22.7827
G01 X42.1230 Y22.7262
G01 X42.1906 Y22.6761
G01 X42.2624 Y22.6331
G01 X42.3382 Y22.5972
G01 X42.4172 Y22.5689
G01 X42.4984 Y22.5486
G01 X42.5816 Y22.5362
G01 X42.6656 Y22.5321
G01 X42.7492 Y22.5362
G01 X42.8320 Y22.5485
G01 X42.9136 Y22.5689
G01 X42.9928 Y22.5973
G01 X43.0684 Y22.6331
G01 X43.1402 Y22.6761
G01 X43.2080 Y22.7263
G01 X43.2700 Y22.7825
G01 X43.3262 Y22.8445
G01 X43.3763 Y22.9121
G01 X43.4194 Y22.9841
G01 X43.4552 Y23.0597
G01 X43.4836 Y23.1391
G01 X43.5040 Y23.2203
G01 X43.5163 Y23.3031
G01 X43.5204 Y23.3871
G01 X43.5204 Y24.6871
G01 X43.5163 Y24.7709
G01 X43.5040 Y24.8539
G01 X43.4835 Y24.9355
G01 X43.4553 Y25.0143
G01 X43.4196 Y25.0899
G01 X43.3763 Y25.1621
G01 X43.3262 Y25.2297
G01 X43.2700 Y25.2917
G01 X43.2080 Y25.3479
G01 X43.1404 Y25.3980
G01 X43.0682 Y25.4413
G01 X42.9926 Y25.4770
G01 X42.9205 Y25.5028
G01 X42.9205 Y26.0371
G01 X42.9193 Y26.0620
G01 X42.9156 Y26.0869
G01 X42.9095 Y26.1114
G01 X42.9011 Y26.1347
G01 X42.8905 Y26.1571
G01 X42.8775 Y26.1788
G01 X42.8626 Y26.1990
G01 X42.8458 Y26.2175
G01 X39.0669 Y29.9964
G01 X39.0482 Y30.0134
G01 X39.0282 Y30.0281
G01 X39.0070 Y30.0409
G01 X38.9841 Y30.0517
G01 X38.9603 Y30.0602
G01 X38.9363 Y30.0662
G01 X38.9118 Y30.0699
G01 X38.8865 Y30.0711
G01 X18.5336 Y30.0711
G01 X18.5087 Y30.0699
G01 X18.4839 Y30.0662
G01 X18.4596 Y30.0601
G01 X18.4361 Y30.0517
G01 X18.4134 Y30.0410
G01 X18.3920 Y30.0281
G01 X18.3718 Y30.0132
G01 X18.3534 Y29.9965
G01 X18.1408 Y29.7839
G01 X18.1239 Y29.7653
G01 X18.1091 Y29.7452
G01 X18.0963 Y29.7240
G01 X18.0855 Y29.7011
G01 X18.0770 Y29.6773
G01 X18.0710 Y29.6533
G01 X18.0673 Y29.6286
G00 Z0.0010
G00 X18.0574 Y29.6299
G01 F60.00
G01 Z-0.0100
G01 F200.00
G01 X18.0561 Y29.6035
G01 X18.0561 Y29.0763
G01 X17.9902 Y29.0527
G01 X17.9141 Y29.0167
G01 X17.8407 Y28.9728
G01 X17.7719 Y28.9217
G01 X17.7096 Y28.8651
G01 X17.6530 Y28.8028
G01 X17.6019 Y28.7340
G01 X17.5580 Y28.6606
G01 X17.5220 Y28.5845
G01 X17.4937 Y28.5053
G01 X17.4729 Y28.4226
G01 X17.4604 Y28.3382
G01 X17.4562 Y28.2535
G01 X17.4562 Y26.9535
G01 X17.4603 Y26.8691
G01 X17.4728 Y26.7848
G01 X17.4935 Y26.7024
G01 X17.5220 Y26.6225
G01 X17.5580 Y26.5464
G01 X17.6019 Y26.4730
G01 X17.6521 Y26.4053
G01 X17.7101 Y26.3413
G01 X17.7724 Y26.2849
G01 X17.8407 Y26.2342
G01 X17.9135 Y26.1906
G01 X17.9902 Y26.1543
G01 X18.0701 Y26.1258
G01 X18.1525 Y26.1051
G01 X18.2365 Y26.0927
G01 X18.3212 Y26.0885
G01 X18.4059 Y26.0927
G01 X18.4899 Y26.1051
G01 X18.5723 Y26.1258
G01 X18.6522 Y26.1543
G01 X18.7289 Y26.1906
G01 X18.8017 Y26.2342
G01 X18.8700 Y26.2849
G01 X18.9323 Y26.3413
G01 X18.9903 Y26.4053
G01 X19.0405 Y26.4730
G01 X19.0844 Y26.5464
G01 X19.1204 Y26.6225
G01 X19.1489 Y26.7024
G01 X19.1696 Y26.7848
G01 X19.1820 Y26.8688
G01 X19.1862 Y26.9535
G01 X19.1862 Y28.2535
G01 X19.1820 Y28.3382
G01 X19.1696 Y28.4222
G01 X19.1487 Y28.5053
G01 X19.1204 Y28.5845
G01 X19.0844 Y28.6606
G01 X19.0405 Y28.7340
G01 X18.9894 Y28.8028
G01 X18.9328 Y28.8651
G01 X18.8705 Y28.9217
G01 X18.8017 Y28.9728
G01 X18.7283 Y29.0167
G01 X18.6522 Y29.0527
G01 X18.5863 Y29.0763
G01 X18.5863 Y29.4937
G01 X18.6435 Y29.5509
G01 X38.7767 Y29.5509
G01 X42.4003 Y25.9273
G01 X42.4003 Y25.5099
G01 X42.3344 Y25.4863
G01 X42.2583 Y25.4503
G01 X42.1849 Y25.4064
G01 X42.1161 Y25.3553
G01 X42.0538 Y25.2987
G01 X41.9972 Y25.2364
G01 X41.9458 Y25.1670
G01 X41.9025 Y25.0948
G01 X41.8665 Y25.0188
G01 X41.8377 Y24.9382
G01 X41.8169 Y24.8551
G01 X41.8046 Y24.7718
G01 X41.8004 Y24.6871
G01 X41.8004 Y23.3871
G01 X41.8045 Y23.3027
G01 X41.8172 Y23.2176
G01 X41.8377 Y23.1360
G01 X41.8660 Y23.0568
G01 X41.9025 Y22.9794
G01 X41.9466 Y22.9059
G01 X41.9968 Y22.8383
G01 X42.0532 Y22.7760
G01 X42.1166 Y22.7185
G01 X42.1855 Y22.6675
G01 X42.2577 Y22.6242
G01 X42.3344 Y22.5879
G01 X42.4143 Y22.5594
G01 X42.4959 Y22.5389
G01 X42.5807 Y22.5263
G01 X42.6661 Y22.5221
G01 X42.7501 Y22.5263
G01 X42.8334 Y22.5386
G01 X42.9165 Y22.5594
G01 X42.9971 Y22.5882
G01 X43.0731 Y22.6242
G01 X43.1453 Y22.6675
G01 X43.2147 Y22.7189
G01 X43.2770 Y22.7755
G01 X43.3336 Y22.8378
G01 X43.3847 Y22.9066
G01 X43.4283 Y22.9794
G01 X43.4643 Y23.0554
G01 X43.4933 Y23.1367
G01 X43.5138 Y23.2184
G01 X43.5261 Y23.3016
G01 X43.5304 Y23.3871
G01 X43.5304 Y24.6871
G01 X43.5262 Y24.7718
G01 X43.5138 Y24.8558
G01 X43.4929 Y24.9389
G01 X43.4646 Y25.0181
G01 X43.4286 Y25.0942
G01 X43.3847 Y25.1676
G01 X43.3336 Y25.2364
G01 X43.2770 Y25.2987
G01 X43.2147 Y25.3553
G01 X43.1459 Y25.4064
G01 X43.0725 Y25.4503
G01 X42.9964 Y25.4863
G01 X42.9305 Y25.5099
G01 X42.9305 Y26.0371
G01 X42.9293 Y26.0627
G01 X42.9254 Y26.0888
G01 X42.9189 Y26.1148
G01 X42.9103 Y26.1386
G01 X42.8996 Y26.1614
G01 X42.8859 Y26.1843
G01 X42.8703 Y26.2053
G01 X42.8529 Y26.2246
G01 X39.0740 Y30.0035
G01 X39.0541 Y30.0214
G01 X39.0338 Y30.0365
G01 X39.0121 Y30.0494
G01 X38.9880 Y30.0609
G01 X38.9628 Y30.0699
G01 X38.9382 Y30.0760
G01 X38.9132 Y30.0797
G01 X38.8865 Y30.0811
G01 X18.5333 Y30.0811
G01 X18.5077 Y30.0798
G01 X18.4820 Y30.0760
G01 X18.4567 Y30.0697
G01 X18.4322 Y30.0609
G01 X18.4087 Y30.0498
G01 X18.3864 Y30.0365
G01 X18.3655 Y30.0209
G01 X18.3465 Y30.0037
G01 X18.1337 Y29.7910
G01 X18.1161 Y29.7715
G01 X18.1007 Y29.7507
G01 X18.0877 Y29.7291
G01 X18.0763 Y29.7050
G01 X18.0673 Y29.6798
G01 X18.0612 Y29.6552
G01 X18.0574 Y29.6299
G00 Z0.0010
G00 X18.0475 Y29.6311
G01 F60.00
G01 Z-0.0100
G01 F200.00
G01 X18.0461 Y29.6035
G01 X18.0461 Y29.0833
G01 X17.9863 Y29.0619
G01 X17.9098 Y29.0257
G01 X17.8346 Y28.9807
G01 X17.7652 Y28.9291
G01 X17.7025 Y28.8722
G01 X17.6452 Y28.8091
G01 X17.5936 Y28.7395
G01 X17.5490 Y28.6649
G01 X17.5128 Y28.5884
G01 X17.4843 Y28.5087
G01 X17.4631 Y28.4248
G01 X17.4504 Y28.3391
G01 X17.4462 Y28.2535
G01 X17.4462 Y26.9535
G01 X17.4504 Y26.8684
G01 X17.4630 Y26.7828
G01 X17.4839 Y26.6995
G01 X17.5128 Y26.6186
G01 X17.5490 Y26.5421
G01 X17.5936 Y26.4675
G01 X17.6441 Y26.3994
G01 X17.7034 Y26.3339
G01 X17.7661 Y26.2772
G01 X17.8352 Y26.2259
G01 X17.9088 Y26.1818
G01 X17.9863 Y26.1451
G01 X18.0672 Y26.1162
G01 X18.1505 Y26.0953
G01 X18.2356 Y26.0827
G01 X18.3212 Y26.0785
G01 X18.4068 Y26.0827
G01 X18.4919 Y26.0953
G01 X18.5752 Y26.1162
G01 X18.6561 Y26.1451
G01 X18.7336 Y26.1818
G01 X18.8072 Y26.2259
G01 X18.8763 Y26.2772
G01 X18.9390 Y26.3339
G01 X18.9983 Y26.3994
G01 X19.0488 Y26.4675
G01 X19.0934 Y26.5421
G01 X19.1296 Y26.6186
G01 X19.1585 Y26.6995
G01 X19.1794 Y26.7828
G01 X19.1920 Y26.8679
G01 X19.1962 Y26.9535
G01 X19.1962 Y28.2535
G01 X19.1920 Y28.3391
G01 X19.1794 Y28.4242
G01 X19.1581 Y28.5087
G01 X19.1296 Y28.5884
G01 X19.0934 Y28.6649
G01 X19.0488 Y28.7395
G01 X18.9972 Y28.8091
G01 X18.9399 Y28.8722
G01 X18.8772 Y28.9291
G01 X18.8078 Y28.9807
G01 X18.7326 Y29.0257
G01 X18.6561 Y29.0619
G01 X18.5963 Y29.0833
G01 X18.5963 Y29.4895
G01 X18.6477 Y29.5409
G01 X38.7725 Y29.5409
G01 X42.3903 Y25.9231
G01 X42.3903 Y25.5169
G01 X42.3305 Y25.4955
G01 X42.2540 Y25.4593
G01 X42.1788 Y25.4143
G01 X42.1094 Y25.3627
G01 X42.0467 Y25.3058
G01 X41.9894 Y25.2427
G01 X41.9372 Y25.1722
G01 X41.8937 Y25.0995
G01 X41.8575 Y25.0231
G01 X41.8281 Y24.9411
G01 X41.8070 Y24.8566
G01 X41.7946 Y24.7727
G01 X41.7904 Y24.6871
G01 X41.7904 Y23.3871
G01 X41.7946 Y23.3020
G01 X41.8075 Y23.2152
G01 X41.8281 Y23.1331
G01 X41.8566 Y23.0534
G01 X41.8937 Y22.9747
G01 X41.9386 Y22.9000
G01 X41.9891 Y22.8320
G01 X42.0458 Y22.7693
G01 X42.1103 Y22.7108
G01 X42.1803 Y22.6589
G01 X42.2530 Y22.6154
G01 X42.3305 Y22.5787
G01 X42.4114 Y22.5498
G01 X42.4935 Y22.5292
G01 X42.5798 Y22.5163
G01 X42.6666 Y22.5121
G01 X42.7510 Y22.5163
G01 X42.8349 Y22.5287
G01 X42.9194 Y22.5498
G01 X43.0014 Y22.5792
G01 X43.0778 Y22.6154
G01 X43.1505 Y22.6589
G01 X43.2214 Y22.7115
G01 X43.2841 Y22.7684
G01 X43.3410 Y22.8311
G01 X43.3930 Y22.9011
G01 X43.4371 Y22.9747
G01 X43.4733 Y23.0511
G01 X43.5031 Y23.1343
G01 X43.5236 Y23.2164
G01 X43.5360 Y23.3001
G01 X43.5404 Y23.3871
G01 X43.5404 Y24.6871
G01 X43.5362 Y24.7727
G01 X43.5236 Y24.8578
G01 X43.5023 Y24.9423
G01 X43.4738 Y25.0220
G01 X43.4376 Y25.0985
G01 X43.3930 Y25.1731
G01 X43.3414 Y25.2427
G01 X43.2841 Y25.3058
G01 X43.2214 Y25.3627
G01 X43.1520 Y25.4143
G01 X43.0768 Y25.4593
G01 X43.0003 Y25.4955
G01 X42.9405 Y25.5169
G01 X42.9405 Y26.0371
G01 X42.9393 Y26.0635
G01 X42.9352 Y26.0907
G01 X42.9283 Y26.1181
G01 X42.9196 Y26.1424
G01 X42.9086 Y26.1657
G01 X42.8942 Y26.1899
G01 X42.8780 Y26.2117
G01 X42.8599 Y26.2316
G01 X39.0811 Y30.0105
G01 X39.0601 Y30.0294
G01 X39.0393 Y30.0448
G01 X39.0173 Y30.0580
G01 X38.9918 Y30.0702
G01 X38.9652 Y30.0796
G01 X38.9401 Y30.0858
G01 X38.9147 Y30.0896
G01 X38.8865 Y30.0911
G01 X18.5331 Y30.0911
G01 X18.5067 Y30.0898
G01 X18.4801 Y30.0858
G01 X18.4538 Y30.0793
G01 X18.4284 Y30.0702
G01 X18.4040 Y30.0586
G01 X18.3809 Y30.0448
G01 X18.3591 Y30.0286
G01 X18.3396 Y30.0110
G01 X18.1267 Y29.7980
G01 X18.1082 Y29.7776
G01 X18.0924 Y29.7563
G01 X18.0792 Y29.7343
G01 X18.0670 Y29.7088
G01 X18.0576 Y29.6822
G01 X18.0514 Y29.6571
G01 X18.0475 Y29.6311
G00 Z0.0010
G00 X18.0375 Y29.6323
G01 F60.00
G01 Z-0.0100
G01 F200.00
G01 X18.0361 Y29.6035
G01 X18.0361 Y29.0903
G01 X17.9825 Y29.0711
G01 X17.9049 Y29.0344
G01 X17.8289 Y28.9889
G01 X17.7585 Y28.9365
G01 X17.6954 Y28.8793
G01 X17.6377 Y28.8156
G01 X17.5853 Y28.7451
G01 X17.5399 Y28.6692
G01 X17.5036 Y28.5922
G01 X17.4748 Y28.5120
G01 X17.4534 Y28.4269
G01 X17.4404 Y28.3400
G01 X17.4362 Y28.2535
G01 X17.4362 Y26.9535
G01 X17.4404 Y26.8678
G01 X17.4532 Y26.7809
G01 X17.4743 Y26.6965
G01 X17.5036 Y26.6148
G01 X17.5399 Y26.5378
G01 X17.5853 Y26.4619
G01 X17.6360 Y26.3934
G01 X17.6967 Y26.3265
G01 X17.7597 Y26.2694
G01 X17.8296 Y26.2176
G01 X17.9041 Y26.1730
G01 X17.9825 Y26.1359
G01 X18.0642 Y26.1066
G01 X18.1486 Y26.0855
G01 X18.2347 Y26.0727
G01 X18.3212 Y26.0685
G01 X18.4077 Y26.0727
G01 X18.4938 Y26.0855
G01 X18.5782 Y26.1066
G01 X18.6599 Y26.1359
G01 X18.7383 Y26.1730
G01 X18.8128 Y26.2176
G01 X18.8827 Y26.2694
G01 X18.9457 Y26.3265
G01 X19.0064 Y26.3934
G01 X19.0571 Y26.4619
G01 X19.1025 Y26.5378
G01 X19.1388 Y26.6148
G01 X19.1681 Y26.6965
G01 X19.1892 Y26.7809
G01 X19.2020 Y26.8670
G01 X19.2062 Y26.9535
G01 X19.2062 Y28.2535
G01 X19.2020 Y28.3400
G01 X19.1892 Y28.4261
G01 X19.1676 Y28.5120
G01 X19.1388 Y28.5922
G01 X19.1025 Y28.6692
G01 X19.0571 Y28.7451
G01 X19.0047 Y28.8156
G01 X18.9470 Y28.8793
G01 X18.8839 Y28.9365
G01 X18.8135 Y28.9889
G01 X18.7375 Y29.0344
G01 X18.6599 Y29.0711
G01 X18.6063 Y29.0903
G01 X18.6063 Y29.4854
G01 X18.6518 Y29.5309
G01 X38.7684 Y29.5309
G01 X42.3803 Y25.9190
G01 X42.3803 Y25.5239
G01 X42.3267 Y25.5047
G01 X42.2491 Y25.4680
G01 X42.1731 Y25.4225
G01 X42.1027 Y25.3701
G01 X42.0396 Y25.3129
G01 X41.9819 Y25.2492
G01 X41.9286 Y25.1773
G01 X41.8849 Y25.1042
G01 X41.8485 Y25.0273
G01 X41.8185 Y24.9441
G01 X41.7971 Y24.8581
G01 X41.7846 Y24.7736
G01 X41.7804 Y24.6871
G01 X41.7804 Y23.3871
G01 X41.7846 Y23.3014
G01 X41.7978 Y23.2128
G01 X41.8185 Y23.1301
G01 X41.8471 Y23.0500
G01 X41.8849 Y22.9700
G01 X41.9305 Y22.8940
G01 X41.9813 Y22.8256
G01 X42.0384 Y22.7626
G01 X42.1039 Y22.7030
G01 X42.1752 Y22.6503
G01 X42.2483 Y22.6066
G01 X42.3267 Y22.5695
G01 X42.4084 Y22.5402
G01 X42.4911 Y22.5195
G01 X42.5789 Y22.5063
G01 X42.6671 Y22.5021
G01 X42.7519 Y22.5063
G01 X42.8364 Y22.5188
G01 X42.9224 Y22.5402
G01 X43.0056 Y22.5702
G01 X43.0825 Y22.6066
G01 X43.1556 Y22.6503
G01 X43.2281 Y22.7041
G01 X43.2912 Y22.7613
G01 X43.3484 Y22.8244
G01 X43.4013 Y22.8955
G01 X43.4459 Y22.9700
G01 X43.4823 Y23.0469
G01 X43.5128 Y23.1319
G01 X43.5334 Y23.2145
G01 X43.5459 Y23.2986
G01 X43.5504 Y23.3871
G01 X43.5504 Y24.6871
G01 X43.5462 Y24.7736
G01 X43.5334 Y24.8597
G01 X43.5118 Y24.9456
G01 X43.4830 Y25.0258
G01 X43.4467 Y25.1028
G01 X43.4013 Y25.1787
G01 X43.3489 Y25.2492
G01 X43.2912 Y25.3129
G01 X43.2281 Y25.3701
G01 X43.1577 Y25.4225
G01 X43.0817 Y25.4680
G01 X43.0041 Y25.5047
G01 X42.9505 Y25.5239
G01 X42.9505 Y26.0371
G01 X42.9492 Y26.0642
G01 X42.9451 Y26.0927
G01 X42.9377 Y26.1215
G01 X42.9288 Y26.1462
G01 X42.9176 Y26.1700
G01 X42.9025 Y26.1954
G01 X42.8857 Y26.2181
G01 X42.8670 Y26.2387
G01 X39.0881 Y30.0176
G01 X39.0660 Y30.0375
G01 X39.0448 Y30.0531
G01 X39.0224 Y30.0666
G01 X38.9956 Y30.0794
G01 X38.9676 Y30.0893
G01 X38.9421 Y30.0956
G01 X38.9162 Y30.0995
G01 X38.8865 Y30.1011
G01 X18.5328 Y30.1011
G01 X18.5057 Y30.0997
G01 X18.4781 Y30.0956
G01 X18.4509 Y30.0888
G01 X18.4246 Y30.0794
G01 X18.3993 Y30.0675
G01 X18.3754 Y30.0531
G01 X18.3527 Y30.0363
G01 X18.3327 Y30.0182
G01 X18.1196 Y29.8051
G01 X18.0999 Y29.7832
G01 X18.0841 Y29.7618
G01 X18.0706 Y29.7394
G01 X18.0578 Y29.7126
G01 X18.0479 Y29.6846
G01 X18.0415 Y29.6591
G01 X18.0375 Y29.6323
G00 Z0.0010
G00 X18.0276 Y29.6336
G01 F60.00
G01 Z-0.0100
G01 F200.00
G01 X18.0261 Y29.6035
G01 X18.0261 Y29.0974
G01 X17.9787 Y29.0804
G01 X17.9004 Y29.0434
G01 X17.8231 Y28.9971
G01 X17.7517 Y28.9439
G01 X17.6883 Y28.8864
G01 X17.6301 Y28.8222
G01 X17.5769 Y28.7506
G01 X17.5309 Y28.6734
G01 X17.4943 Y28.5960
G01 X17.4654 Y28.5154
G01 X17.4436 Y28.4291
G01 X17.4305 Y28.3409
G01 X17.4262 Y28.2535
G01 X17.4262 Y26.9535
G01 X17.4305 Y26.8661
G01 X17.4434 Y26.7790
G01 X17.4648 Y26.6936
G01 X17.4943 Y26.6110
G01 X17.5309 Y26.5336
G01 X17.5769 Y26.4564
G01 X17.6280 Y26.3875
G01 X17.6899 Y26.3191
G01 X17.7533 Y26.2617
G01 X17.8241 Y26.2092
G01 X17.8994 Y26.1641
G01 X17.9787 Y26.1266
G01 X18.0613 Y26.0971
G01 X18.1467 Y26.0757
G01 X18.2338 Y26.0628
G01 X18.3212 Y26.0585
G01 X18.4086 Y26.0628
G01 X18.4957 Y26.0757
G01 X18.5811 Y26.0971
G01 X18.6637 Y26.1266
G01 X18.7430 Y26.1641
G01 X18.8183 Y26.2092
G01 X18.8891 Y26.2617
G01 X18.9525 Y26.3191
G01 X19.0144 Y26.3875
G01 X19.0655 Y26.4564
G01 X19.1115 Y26.5336
G01 X19.1481 Y26.6110
G01 X19.1776 Y26.6936
G01 X19.1990 Y26.7790
G01 X19.2119 Y26.8661
G01 X19.2162 Y26.9535
G01 X19.2162 Y28.2535
G01 X19.2119 Y28.3409
G01 X19.1990 Y28.4280
G01 X19.1770 Y28.5154
G01 X19.1481 Y28.5960
G01 X19.1115 Y28.6734
G01 X19.0655 Y28.7506
G01 X19.0123 Y28.8222
G01 X18.9541 Y28.8864
G01 X18.8907 Y28.9439
G01 X18.8193 Y28.9971
G01 X18.7420 Y29.0434
G01 X18.6637 Y29.0804
G01 X18.6163 Y29.0974
G01 X18.6163 Y29.4813
G01 X18.6559 Y29.5209
G01 X38.7643 Y29.5209
G01 X42.3703 Y25.9149
G01 X42.3703 Y25.5310
G01 X42.3218 Y25.5135
G01 X42.2446 Y25.4770
G01 X42.1673 Y25.4307
G01 X42.0975 Y25.3789
G01 X42.0341 Y25.3215
G01 X41.9730 Y25.2542
G01 X41.9211 Y25.1842
G01 X41.8772 Y25.1109
G01 X41.8385 Y25.0296
G01 X41.8083 Y24.9448
G01 X41.7876 Y24.8616
G01 X41.7748 Y24.7754
G01 X41.7704 Y24.6871
G01 X41.7704 Y23.3871
G01 X41.7748 Y23.2988
G01 X41.7876 Y23.2126
G01 X41.8083 Y23.1294
G01 X41.8385 Y23.0446
G01 X41.8772 Y22.9633
G01 X41.9211 Y22.8900
G01 X41.9722 Y22.8211
G01 X42.0325 Y22.7542
G01 X42.0994 Y22.6939
G01 X42.1683 Y22.6428
G01 X42.2416 Y22.5989
G01 X42.3250 Y22.5594
G01 X42.4055 Y22.5307
G01 X42.4886 Y22.5098
G01 X42.5780 Y22.4964
G01 X42.6654 Y22.4921
G01 X42.7509 Y22.4962
G01 X42.8399 Y22.5093
G01 X42.9273 Y22.5313
G01 X43.0079 Y22.5602
G01 X43.0872 Y22.5977
G01 X43.1644 Y22.6442
G01 X43.2333 Y22.6953
G01 X43.2967 Y22.7527
G01 X43.3586 Y22.8211
G01 X43.4097 Y22.8900
G01 X43.4536 Y22.9633
G01 X43.4923 Y23.0446
G01 X43.5225 Y23.1294
G01 X43.5432 Y23.2126
G01 X43.5558 Y23.2972
G01 X43.5604 Y23.3871
G01 X43.5604 Y24.6871
G01 X43.5561 Y24.7745
G01 X43.5432 Y24.8616
G01 X43.5212 Y24.9490
G01 X43.4923 Y25.0296
G01 X43.4557 Y25.1070
G01 X43.4097 Y25.1842
G01 X43.3565 Y25.2558
G01 X43.2983 Y25.3200
G01 X43.2349 Y25.3775
G01 X43.1635 Y25.4307
G01 X43.0862 Y25.4770
G01 X43.0090 Y25.5135
G01 X42.9605 Y25.5310
G01 X42.9605 Y26.0371
G01 X42.9592 Y26.0650
G01 X42.9549 Y26.0946
G01 X42.9471 Y26.1249
G01 X42.9380 Y26.1501
G01 X42.9267 Y26.1742
G01 X42.9109 Y26.2009
G01 X42.8935 Y26.2244
G01 X42.8741 Y26.2458
G01 X39.0952 Y30.0247
G01 X39.0722 Y30.0453
G01 X39.0503 Y30.0615
G01 X39.0276 Y30.0752
G01 X38.9995 Y30.0886
G01 X38.9701 Y30.0990
G01 X38.9440 Y30.1055
G01 X38.9176 Y30.1094
G01 X38.8865 Y30.1111
G01 X18.5326 Y30.1111
G01 X18.5047 Y30.1097
G01 X18.4762 Y30.1055
G01 X18.4479 Y30.0984
G01 X18.4207 Y30.0886
G01 X18.3946 Y30.0763
G01 X18.3699 Y30.0615
G01 X18.3464 Y30.0440
G01 X18.3258 Y30.0254
G01 X18.1125 Y29.8122
G01 X18.0919 Y29.7892
G01 X18.0757 Y29.7673
G01 X18.0620 Y29.7445
G01 X18.0486 Y29.7165
G01 X18.0382 Y29.6870
G01 X18.0317 Y29.6610
G01 X18.0276 Y29.6336
G00 Z0.0010
G00 X25.4461 Y26.4867
G01 F60.00
G01 Z-0.0100
G01 F200.00
G01 X25.4449 Y26.4600
G01 X25.4449 Y23.2589
G01 X25.4463 Y23.2310
G01 X25.4502 Y23.2046
G01 X25.4576 Y23.1743
G01 X25.4674 Y23.1470
G01 X25.4787 Y23.1229
G01 X25.4952 Y23.0952
G01 X25.5119 Y23.0727
G01 X25.5313 Y23.0513
G01 X26.1928 Y22.3898
G01 X26.2142 Y22.3704
G01 X26.2377 Y22.3530
G01 X26.2625 Y22.3382
G01 X26.2906 Y22.3250
G01 X26.3158 Y22.3161
G01 X26.3418 Y22.3095
G01 X26.3714 Y22.3049
G01 X26.4015 Y22.3034
G01 X26.6659 Y22.3034
G01 X26.6931 Y22.2275
G01 X26.7297 Y22.1501
G01 X26.7747 Y22.0746
G01 X26.8282 Y22.0021
G01 X26.8856 Y21.9387
G01 X26.9521 Y21.8782
G01 X27.0229 Y21.8257
G01 X27.0982 Y21.7806
G01 X27.1775 Y21.7431
G01 X27.2601 Y21.7136
G01 X27.3455 Y21.6922
G01 X27.4326 Y21.6793
G01 X27.5178 Y21.6751
G01 X28.8200 Y21.6750
G01 X28.9083 Y21.6794
G01 X28.9945 Y21.6922
G01 X29.0777 Y21.7129
G01 X29.1645 Y21.7440
G01 X29.2418 Y21.7806
G01 X29.3171 Y21.8257
G01 X29.3879 Y21.8782
G01 X29.4513 Y21.9356
G01 X29.5132 Y22.0040
G01 X29.5643 Y22.0729
G01 X29.6094 Y22.1482
G01 X29.6469 Y22.2275
G01 X29.6758 Y22.3081
G01 X29.6978 Y22.3955
G01 X29.7109 Y22.4845
G01 X29.7150 Y22.5700
G01 X29.7107 Y22.6574
G01 X29.6978 Y22.7445
G01 X29.6771 Y22.8277
G01 X29.6460 Y22.9145
G01 X29.6094 Y22.9918
G01 X29.5653 Y23.0654
G01 X29.5104 Y23.1395
G01 X29.4529 Y23.2029
G01 X29.3879 Y23.2618
G01 X29.3171 Y23.3143
G01 X29.2438 Y23.3582
G01 X29.1625 Y23.3969
G01 X29.0777 Y23.4271
G01 X28.9945 Y23.4478
G01 X28.9099 Y23.4604
G01 X28.8222 Y23.4649
G01 X27.5200 Y23.4650
G01 X27.4326 Y23.4607
G01 X27.3465 Y23.4480
G01 X27.2601 Y23.4264
G01 X27.1755 Y23.3960
G01 X27.0982 Y23.3594
G01 X27.0246 Y23.3153
G01 X26.9521 Y23.2618
G01 X26.8856 Y23.2013
G01 X26.8282 Y23.1379
G01 X26.7771 Y23.0690
G01 X26.7306 Y22.9918
G01 X26.6936 Y22.9136
G01 X26.6863 Y22.8936
G01 X26.5237 Y22.8936
G01 X26.0351 Y23.3822
G01 X26.0351 Y26.3378
G01 X27.7102 Y28.0128
G01 X37.4828 Y28.0128
G01 X37.9319 Y27.5638
G01 X37.9319 Y22.8810
G01 X37.9333 Y22.8520
G01 X37.9380 Y22.8213
G01 X37.9446 Y22.7953
G01 X37.9535 Y22.7701
G01 X37.9662 Y22.7430
G01 X37.9829 Y22.7152
G01 X37.9989 Y22.6937
G01 X38.0183 Y22.6723
G01 X39.6163 Y21.0743
G01 X39.6395 Y21.0535
G01 X39.6612 Y21.0375
G01 X39.6849 Y21.0232
G01 X39.7120 Y21.0104
G01 X39.7415 Y21.0000
G01 X39.7675 Y20.9935
G01 X39.7939 Y20.9896
G01 X39.8239 Y20.9879
G01 X41.6648 Y20.9879
G01 X42.4313 Y20.2214
G01 X42.4313 Y18.8010
G01 X42.3828 Y18.7835
G01 X42.3056 Y18.7470
G01 X42.2283 Y18.7007
G01 X42.1585 Y18.6489
G01 X42.0951 Y18.5915
G01 X42.0340 Y18.5242
G01 X41.9821 Y18.4542
G01 X41.9382 Y18.3809
G01 X41.8995 Y18.2996
G01 X41.8693 Y18.2148
G01 X41.8486 Y18.1316
G01 X41.8360 Y18.0470
G01 X41.8314 Y17.9571
G01 X41.8314 Y16.6560
G01 X41.8357 Y16.5697
G01 X41.8482 Y16.4847
G01 X41.8696 Y16.3983
G01 X41.9004 Y16.3126
G01 X41.9370 Y16.2353
G01 X41.9821 Y16.1600
G01 X42.0360 Y16.0876
G01 X42.0935 Y16.0242
G01 X42.1585 Y15.9653
G01 X42.2310 Y15.9118
G01 X42.3046 Y15.8677
G01 X42.3839 Y15.8302
G01 X42.4665 Y15.8007
G01 X42.5496 Y15.7798
G01 X42.6390 Y15.7664
G01 X42.7264 Y15.7621
G01 X42.8119 Y15.7662
G01 X42.9009 Y15.7793
G01 X42.9883 Y15.8013
G01 X43.0689 Y15.8302
G01 X43.1482 Y15.8677
G01 X43.2254 Y15.9142
G01 X43.2943 Y15.9653
G01 X43.3593 Y16.0242
G01 X43.4196 Y16.0911
G01 X43.4707 Y16.1600
G01 X43.5152 Y16.2343
G01 X43.5533 Y16.3146
G01 X43.5828 Y16.3972
G01 X43.6042 Y16.4826
G01 X43.6173 Y16.5716
G01 X43.6214 Y16.6571
G01 X43.6214 Y17.9571
G01 X43.6170 Y18.0454
G01 X43.6042 Y18.1316
G01 X43.5835 Y18.2148
G01 X43.5533 Y18.2996
G01 X43.5146 Y18.3809
G01 X43.4707 Y18.4542
G01 X43.4188 Y18.5242
G01 X43.3577 Y18.5915
G01 X43.2943 Y18.6489
G01 X43.2245 Y18.7007
G01 X43.1472 Y18.7470
G01 X43.0700 Y18.7835
G01 X43.0215 Y18.8010
G01 X43.0215 Y20.3447
G01 X43.0201 Y20.3726
G01 X43.0162 Y20.3990
G01 X43.0088 Y20.4293
G01 X42.9990 Y20.4566
G01 X42.9877 Y20.4807
G01 X42.9705 Y20.5094
G01 X42.9545 Y20.5309
G01 X42.9351 Y20.5523
G01 X41.9949 Y21.4925
G01 X41.9743 Y21.5111
G01 X41.9491 Y21.5296
G01 X41.9260 Y21.5433
G01 X41.9020 Y21.5548
G01 X41.8748 Y21.5647
G01 X41.8424 Y21.5728
G01 X41.8160 Y21.5767
G01 X41.7870 Y21.5781
G01 X39.9472 Y21.5781
G01 X38.5221 Y23.0032
G01 X38.5221 Y27.6860
G01 X38.5204 Y27.7171
G01 X38.5165 Y27.7435
G01 X38.5100 Y27.7695
G01 X38.4988 Y27.8010
G01 X38.4873 Y27.8251
G01 X38.4725 Y27.8498
G01 X38.4551 Y27.8733
G01 X38.4372 Y27.8931
G01 X37.8129 Y28.5174
G01 X37.7923 Y28.5360
G01 X37.7708 Y28.5521
G01 X37.7451 Y28.5677
G01 X37.7180 Y28.5806
G01 X37.6886 Y28.5910
G01 X37.6625 Y28.5974
G01 X37.6361 Y28.6014
G01 X37.6050 Y28.6031
G01 X27.5880 Y28.6031
G01 X27.5590 Y28.6017
G01 X27.5315 Y28.5976
G01 X27.5002 Y28.5897
G01 X27.4750 Y28.5806
G01 X27.4489 Y28.5683
G01 X27.4222 Y28.5521
G01 X27.4007 Y28.5360
G01 X27.3801 Y28.5174
G01 X25.5313 Y26.6687
G01 X25.5119 Y26.6473
G01 X25.4945 Y26.6238
G01 X25.4797 Y26.5990
G01 X25.4682 Y26.5750
G01 X25.4576 Y26.5457
G01 X25.4510 Y26.5197
G01 X25.4461 Y26.4867
G00 Z0.0010
G00 X25.4561 Y26.4862
G01 F60.00
G01 Z-0.0100
G01 F200.00
G01 X25.4549 Y26.4600
G01 X25.4549 Y23.2591
G01 X25.4563 Y23.2320
G01 X25.4601 Y23.2061
G01 X25.4672 Y23.1772
G01 X25.4766 Y23.1509
G01 X25.4878 Y23.1271
G01 X25.5034 Y23.1009
G01 X25.5197 Y23.0790
G01 X25.5384 Y23.0584
G01 X26.1999 Y22.3969
G01 X26.2205 Y22.3782
G01 X26.2432 Y22.3614
G01 X26.2686 Y22.3463
G01 X26.2924 Y22.3351
G01 X26.3171 Y22.3262
G01 X26.3459 Y22.3188
G01 X26.3735 Y22.3148
G01 X26.4015 Y22.3134
G01 X26.6730 Y22.3134
G01 X26.7024 Y22.2313
G01 X26.7395 Y22.1529
G01 X26.7841 Y22.0784
G01 X26.8370 Y22.0073
G01 X26.8942 Y21.9442
G01 X26.9573 Y21.8870
G01 X27.0269 Y21.8351
G01 X27.1029 Y21.7895
G01 X27.1813 Y21.7524
G01 X27.2630 Y21.7231
G01 X27.3474 Y21.7020
