(G-CODE GENERATED BY FLATCAM v8.994 - www.flatcam.org - Version Date: 2020/11/7)

(Name: Termostato-Diferencial-Mini-B_SilkS.gbo_edit_iso_combined_cnc)
(Type: G-code from Geometry)
(Units: MM)

(Created on miércoles, 25 agosto 2021 at 02:17)

(This preprocessor is the default preprocessor used by FlatCAM.)
(It is made to work with MACH3 compatible motion controllers.)

(TOOL DIAMETER: 0.001 mm)
(Feedrate_XY: 300.0 mm/min)
(Feedrate_Z: 300.0 mm/min)
(Feedrate rapids 1500.0 mm/min)

(Z_Cut: -0.05 mm)
(Z_Move: 0.001 mm)
(Z Start: None mm)
(Z End: 0.0 mm)
(X,Y End: None mm)
(Steps per circle: 64)
(Preprocessor Geometry: default)

(X range:  -47.4555 ...   46.5565  mm)
(Y range:  -35.5634 ...   34.0755  mm)

(Spindle Speed: 10000.0 RPM)

G01 F0.100

M0
M03 S12.0
Z0.10
Z0.01
Z0.10
Z0.01
Z0.10
Z0.01
Z0.10
Z0.01
Z0.10
Z0.01
Z0.10
Z0.01
Z0.10
Z0.01
Z0.10
Z0.01
Z0.10
Z0.01
Z0.10
Z0.01
Z0.10
Z0.01
Z0.10
Z0.01
Z0.10
Z0.01
M05
G00 Z0.00
